; generated by PrusaSlicer 2.7.4+MacOS-arm64 on 2024-10-12 at 04:18:48 UTC


;
;

;
;

;
;

;
;
; 

; external perimeters extrusion width = 0.45mm
; perimeters extrusion width = 0.45mm
; infill extrusion width = 0.45mm
; solid infill extrusion width = 0.45mm
; top infill extrusion width = 0.40mm
; first layer extrusion width = 0.42mm

; external perimeters extrusion width = 0.45mm
; perimeters extrusion width = 0.45mm
; infill extrusion width = 0.45mm
; solid infill extrusion width = 0.45mm
; top infill extrusion width = 0.40mm
; first layer extrusion width = 0.42mm

M73 P0 R72
M73 Q0 S72
M201 X2500 Y2500 Z400 E5000 ; sets maximum accelerations, mm/sec^2
M203 X180 Y180 Z12 E80 ; sets maximum feedrates, mm / sec
M204 P2000 R1250 T2500 ; sets acceleration (P, T) and retract acceleration (R), mm/sec^2
M205 X8.00 Y8.00 Z2.00 E10.00 ; sets the jerk limits, mm/sec
M205 S0 T0 ; sets the minimum extruding and travel feed rate, mm/sec

M486 S0
M486 Aaframe.stl_1
M486 S-1
M486 S1
M486 Aaframe.stl_2
M486 S-1

;TYPE:Custom
M862.3 P "MINI" ; printer model check
G90 ; use absolute coordinates
M83 ; extruder relative mode
M104 S170 ; set extruder temp for bed leveling
M140 S85 ; set bed temp
M109 R170 ; wait for bed leveling temp
M190 S85 ; wait for bed temp
M204 T1250 ; set travel acceleration
G28 ; home all without mesh bed level
G29 ; mesh bed leveling 
M204 T2500 ; restore travel acceleration
M104 S240 ; set extruder temp
G92 E0
G1 Y-2 X179 F2400
G1 Z3 F720
M109 S240 ; wait for extruder temp

; intro line
G1 X170 F1000
G1 Z0.2 F720
G1 X110 E8 F900
G1 X40 E10 F700
G92 E0

M221 S95 ; set flow
G21 ; set units to millimeters
G90 ; use absolute coordinates
M83 ; use relative distances for extrusion
M900 K0.2 ; Filament gcode

M107
;LAYER_CHANGE
;Z:0.2
;HEIGHT:0.2
G1 E-3.2 F2700
G1 Z.4 F720
G1 X32.746 Y31.446 F9000
G1 Z.2 F720
G1 E3.2 F1500
M204 P600
;TYPE:Skirt/Brim
;WIDTH:0.42
G1 F1200
G1 X43.639 Y20.104 E.49307
G1 X45.353 Y19.373 E.05842
G1 X98.553 Y19.373 E1.66805
G1 X100.268 Y20.104 E.05845
M73 P0 R71
M73 Q0 S71
G1 X112.501 Y32.854 E.55401
G1 X148.68 Y77.553 E1.80305
G1 X149.21 Y79.049 E.04976
G1 X149.21 Y109.149 E.94376
G1 X148.587 Y110.752 E.05392
G1 X103.708 Y159.854 E2.08574
G1 X101.953 Y160.627 E.06013
G1 X41.953 Y160.627 E1.88126
G1 X40.646 Y160.235 E.04278
G1 X39.77 Y159.19 E.04275
G1 X39.582 Y158.417 E.02494
G1 X30.882 Y34.517 E3.89436
G1 X31.539 Y32.704 E.06046
G1 X32.704 Y31.49 E.05276
M204 P1000
G1 E-2.24 F2700
;WIPE_START
G1 F7200
G1 X32.746 Y31.446 E-.02167
G1 X34.57 Y29.546 E-.93833
;WIPE_END
G1 Z.4 F720
M486 S0
G1 X57.683 Y156.547 F9000
G1 Z.2 F720
G1 E3.2 F1500
M204 P600
;TYPE:Perimeter
;WIDTH:0.500658
G1 F1200
G2 X57.728 Y156.371 I-.292 J-.167 E.007
;WIDTH:0.494381
G1 X57.728 Y149.474 E.25891
G1 X58.179 Y149.474 E.01693
G1 X58.179 Y156.371 E.25891
;WIDTH:0.500658
G1 X58.196 Y156.989 E.02353
;WIDTH:0.460329
G1 X58.216 Y157.463 E.01647
;WIDTH:0.419999
G1 X57.811 Y157.463 E.0127
;WIDTH:0.457188
G1 X57.468 Y157.444 E.01183
;WIDTH:0.494378
G1 X57.125 Y157.426 E.01289
G1 X43.847 Y157.426 E.49844
G1 X43.267 Y157.444 E.02178
;WIDTH:0.457189
G1 X42.687 Y157.463 E.01999
;WIDTH:0.419999
G1 X42.659 Y157.059 E.0127
;WIDTH:0.468534
G1 X42.669 Y156.857 E.00716
;WIDTH:0.517069
G1 X42.679 Y156.656 E.00793
;WIDTH:0.565604
G1 X42.689 Y156.455 E.00875
G1 X39.854 Y116.428 E1.74399
;WIDTH:0.516424
G1 X37.019 Y76.402 E1.57985
;WIDTH:0.467243
G1 X34.183 Y36.375 E1.4158
M73 P1 R71
M73 Q1 S71
;WIDTH:0.419999
G1 X34.078 Y34.857 E.04771
G1 X45.821 Y29.906 E.39958
;WIDTH:0.460329
G1 X45.996 Y29.704 E.00928
;WIDTH:0.500658
G1 X46.172 Y29.502 E.0102
G1 X46.178 Y29.397 E.004
;WIDTH:0.494381
G1 X46.178 Y23.629 E.21653
G1 X46.159 Y23.083 E.02051
;WIDTH:0.45719
G1 X46.14 Y22.537 E.01882
;WIDTH:0.419999
G1 X46.545 Y22.537 E.0127
;WIDTH:0.457192
G1 X46.889 Y22.556 E.01187
;WIDTH:0.494385
G1 X47.232 Y22.574 E.01289
G1 X96.675 Y22.574 E1.85606
G1 X97.22 Y22.556 E.02047
;WIDTH:0.457192
G1 X97.766 Y22.537 E.01882
;WIDTH:0.419999
G1 X97.766 Y22.942 E.0127
;WIDTH:0.45719
G1 X97.748 Y23.285 E.01183
;WIDTH:0.494381
G1 X97.729 Y23.629 E.01293
G1 X97.729 Y29.397 E.21653
;WIDTH:0.500659
G1 X97.735 Y29.502 E.004
G1 X97.924 Y29.71 E.0107
;WIDTH:0.460329
G1 X98.112 Y29.918 E.00973
;WIDTH:0.419999
G1 X109.829 Y34.857 E.39868
G1 X109.723 Y36.375 E.04771
;WIDTH:0.467242
G1 X106.888 Y76.402 E1.41579
;WIDTH:0.516422
G1 X104.053 Y116.428 E1.57984
;WIDTH:0.565601
G1 X101.217 Y156.455 E1.74398
G1 X101.227 Y156.656 E.00875
;WIDTH:0.517067
G1 X101.238 Y156.857 E.00794
;WIDTH:0.468533
G1 X101.248 Y157.059 E.00716
;WIDTH:0.419999
G1 X101.219 Y157.463 E.0127
G1 X100.814 Y157.463 E.0127
;WIDTH:0.457188
G1 X100.437 Y157.444 E.013
;WIDTH:0.494378
G1 X100.059 Y157.426 E.01421
G1 X86.782 Y157.426 E.4984
G1 X86.236 Y157.444 E.02051
;WIDTH:0.457189
G1 X85.69 Y157.463 E.01882
;WIDTH:0.419999
G1 X85.69 Y157.058 E.0127
;WIDTH:0.45719
G1 X85.709 Y156.715 E.01183
;WIDTH:0.494381
G1 X85.728 Y156.371 E.01293
G1 X85.728 Y149.474 E.25891
G1 X86.179 Y149.474 E.01693
G1 X86.179 Y156.371 E.25891
;WIDTH:0.500659
G2 X86.283 Y156.624 I.336 J.009 E.01072
;WIDTH:0.460329
G1 X86.382 Y156.771 E.00615
;WIDTH:0.457189
G1 X86.582 Y156.873 E.00773
;WIDTH:0.494378
G1 X86.782 Y156.974 E.00841
G1 X100.059 Y156.974 E.4984
;WIDTH:0.500656
G2 X100.325 Y156.855 I.003 J-.351 E.01144
;WIDTH:0.460328
G1 X100.486 Y156.743 E.00681
;WIDTH:0.458104
G1 X100.535 Y156.689 E.00252
;WIDTH:0.496208
G1 X100.584 Y156.635 E.00275
;WIDTH:0.534313
G1 X100.633 Y156.58 E.00301
;WIDTH:0.572417
G2 X100.696 Y156.418 I-.121 J-.14 E.00797
;WIDTH:0.565601
G1 X103.58 Y116.395 E1.74395
;WIDTH:0.516422
G1 X106.465 Y76.372 E1.57987
;WIDTH:0.467242
G1 X109.349 Y36.349 E1.41577
;WIDTH:0.418062
G1 X109.349 Y36.347 E.00006
;WIDTH:0.423761
G1 X109.35 Y36.249 E.0031
G1 X109.005 Y35.786 E.01828
;WIDTH:0.419999
G1 X97.24 Y30.828 E.4003
G1 X97.24 Y30.437 E.01226
;WIDTH:0.45719
G1 X97.259 Y29.917 E.01792
;WIDTH:0.494381
G1 X97.278 Y29.397 E.01953
G1 X97.278 Y23.629 E.21653
;WIDTH:0.500659
G2 X97.173 Y23.376 I-.337 J-.009 E.01074
;WIDTH:0.460329
G1 X97.075 Y23.229 E.00613
;WIDTH:0.457192
G1 X96.875 Y23.127 E.00773
;WIDTH:0.494385
G1 X96.675 Y23.026 E.00841
G1 X47.232 Y23.026 E1.85606
;WIDTH:0.500663
G2 X46.979 Y23.13 I-.009 J.336 E.01072
;WIDTH:0.460331
G1 X46.832 Y23.229 E.00615
;WIDTH:0.45719
G1 X46.73 Y23.429 E.00773
;WIDTH:0.494381
G1 X46.629 Y23.629 E.00841
G1 X46.629 Y29.397 E.21653
;WIDTH:0.500658
G1 X46.646 Y30.184 E.02996
;WIDTH:0.460329
G1 X46.666 Y30.828 E.02236
;WIDTH:0.419999
G1 X34.901 Y35.786 E.4003
G1 X34.558 Y36.349 E.02067
;WIDTH:0.467243
G1 X37.442 Y76.372 E1.41578
;WIDTH:0.516424
G1 X40.326 Y116.395 E1.57987
;WIDTH:0.565604
G1 X43.211 Y156.418 E1.74397
;WIDTH:0.572419
G2 X43.273 Y156.58 I.184 J.022 E.00795
;WIDTH:0.534314
G1 X43.322 Y156.635 E.00301
;WIDTH:0.496209
G1 X43.371 Y156.689 E.00275
;WIDTH:0.458104
G1 X43.421 Y156.743 E.00254
;WIDTH:0.457189
G1 X43.634 Y156.858 E.00834
;WIDTH:0.494378
G1 X43.847 Y156.974 E.0091
G1 X57.125 Y156.974 E.49844
;WIDTH:0.500655
G2 X57.377 Y156.87 I.008 J-.336 E.01068
;WIDTH:0.460329
G2 X57.623 Y156.624 I-.241 J-.488 E.01229
;WIDTH:0.500658
G2 X57.649 Y156.596 I-.232 J-.244 E.00146
M204 P1000
G1 X57.649 Y156.596 F9000
G1 X57.313 Y156.371
M204 P600
;TYPE:External perimeter
;WIDTH:0.419999
G1 F1200
G1 X57.313 Y149.06 E.22923
G1 X58.593 Y149.06 E.04013
G1 X58.593 Y157.84 E.27529
G1 X42.335 Y157.84 E.50976
G1 X33.683 Y34.614 E3.87317
M73 P1 R70
M73 Q1 S70
G1 X45.648 Y29.571 E.40711
G1 X45.763 Y29.397 E.00654
G1 X45.763 Y22.16 E.22691
G1 X98.143 Y22.16 E1.64234
G1 X98.143 Y29.397 E.22691
M73 P2 R70
M73 Q2 S70
G1 X98.259 Y29.571 E.00656
G1 X110.224 Y34.614 E.40711
G1 X101.571 Y157.84 E3.87317
G1 X85.313 Y157.84 E.50976
G1 X85.313 Y149.06 E.27529
G1 X86.593 Y149.06 E.04013
G1 X86.593 Y156.371 E.22923
G2 X86.782 Y156.56 I.218 J-.029 E.00901
G1 X100.059 Y156.56 E.41629
G2 X100.247 Y156.385 I-.03 J-.221 E.00858
G1 X108.974 Y36.321 E3.77445
G1 X108.859 Y36.134 E.00688
G1 X96.863 Y31.078 E.40817
G1 X96.863 Y23.629 E.23356
G2 X96.675 Y23.44 I-.218 J.029 E.00898
G1 X47.232 Y23.44 E1.55025
G2 X47.043 Y23.629 I.029 J.218 E.00901
G1 X47.043 Y31.078 E.23356
G1 X35.069 Y36.125 E.40742
G1 X34.933 Y36.321 E.00748
G1 X43.659 Y156.385 E3.77445
G2 X43.847 Y156.56 I.219 J-.046 E.00858
G1 X57.125 Y156.56 E.41632
G2 X57.297 Y156.429 I-.03 J-.218 E.00709
M204 P1000
G1 X57.297 Y156.429 F9000
G1 X57.551 Y156.961
M204 P600
;TYPE:Solid infill
;WIDTH:0.495415
G1 F1200
G1 X57.884 Y157.293 E.01769
M204 P1000
G1 E-2.24 F2700
;WIPE_START
G1 F7200
G1 X57.551 Y156.961 E-.16752
;WIPE_END
G1 E-.79248 F2700
G1 Z.4 F720
G1 X46.486 Y30.317 F9000
G1 Z.2 F720
G1 E3.2 F1500
M204 P600
;WIDTH:0.422268
G1 F1200
G1 X46.174 Y30.005 E.01392
G3 X45.882 Y30.25 I-.528 J-.334 E.01222
G1 X46.262 Y30.63 E.01695
G1 X45.885 Y30.789 E.01291
G1 X45.505 Y30.409 E.01695
G1 X45.127 Y30.568 E.01294
G1 X45.507 Y30.948 E.01695
G1 X45.13 Y31.107 E.01291
G1 X44.75 Y30.727 E.01695
G1 X44.372 Y30.886 E.01294
G1 X44.752 Y31.266 E.01695
G1 X44.375 Y31.425 E.01291
G1 X43.995 Y31.045 E.01695
G1 X43.618 Y31.204 E.01291
G1 X43.998 Y31.584 E.01695
G1 X43.62 Y31.743 E.01294
G1 X43.24 Y31.363 E.01695
G1 X42.863 Y31.522 E.01291
G1 X43.243 Y31.902 E.01695
G1 X42.865 Y32.061 E.01294
G1 X42.485 Y31.681 E.01695
G1 X42.108 Y31.84 E.01291
G1 X42.488 Y32.22 E.01695
G1 X42.111 Y32.379 E.01291
G1 X41.73 Y31.999 E.01697
G1 X41.353 Y32.158 E.01291
G1 X41.733 Y32.539 E.01697
G1 X41.356 Y32.698 E.01291
G1 X40.976 Y32.317 E.01697
G1 X40.598 Y32.477 E.01295
G1 X40.978 Y32.857 E.01695
G1 X40.601 Y33.016 E.01291
G1 X40.221 Y32.636 E.01695
G1 X39.843 Y32.795 E.01294
G1 X40.224 Y33.175 E.01697
G1 X39.846 Y33.334 E.01294
G1 X39.466 Y32.954 E.01695
G1 X39.089 Y33.113 E.01291
G1 X39.469 Y33.493 E.01695
G1 X39.091 Y33.652 E.01294
G1 X38.711 Y33.272 E.01695
G1 X38.334 Y33.431 E.01291
G1 X38.714 Y33.811 E.01695
G1 X38.337 Y33.97 E.01291
G1 X37.956 Y33.59 E.01697
G1 X37.579 Y33.749 E.01291
G1 X37.959 Y34.129 E.01695
G1 X37.582 Y34.288 E.01291
G1 X37.202 Y33.908 E.01695
G1 X36.824 Y34.067 E.01294
G1 X37.204 Y34.447 E.01695
G1 X36.827 Y34.606 E.01291
G1 X36.447 Y34.226 E.01695
G1 X36.069 Y34.385 E.01294
G1 X36.449 Y34.766 E.01697
G1 X36.072 Y34.925 E.01291
G1 X35.692 Y34.545 E.01695
G1 X35.315 Y34.704 E.01291
G1 X35.695 Y35.084 E.01695
G1 X35.317 Y35.243 E.01294
G1 X34.937 Y34.863 E.01695
G1 X34.56 Y35.022 E.01291
G1 X34.94 Y35.402 E.01695
G2 X34.637 Y35.636 I.06 J.39 E.01261
G1 X34.277 Y35.275 E.01608
M204 P1000
G1 E-2.24 F2700
;WIPE_START
G1 F7200
G1 X34.637 Y35.636 E-.18162
G3 X34.94 Y35.402 I.363 J.156 E-.14239
G1 X34.56 Y35.022 E-.19145
G1 X34.937 Y34.863 E-.14576
G1 X35.317 Y35.243 E-.19145
G1 X35.594 Y35.126 E-.10733
;WIPE_END
G1 Z.4 F720
G1 X46.31 Y22.869 F9000
G1 Z.2 F720
G1 E3.2 F1500
M204 P600
;WIDTH:0.495415
G1 F1200
G1 X46.654 Y23.214 E.01833
M204 P1000
G1 E-2.24 F2700
;WIPE_START
G1 F7200
G1 X46.31 Y22.869 E-.17356
;WIPE_END
G1 E-.78644 F2700
G1 Z.4 F720
G1 X109.598 Y35.687 F9000
G1 Z.2 F720
G1 E3.2 F1500
M204 P600
;WIDTH:0.42256
G1 F1200
G1 X108.632 Y34.72 E.04315
G1 X107.704 Y34.329 E.03179
G1 X108.638 Y35.263 E.0417
G1 X107.71 Y34.872 E.03179
G1 X106.776 Y33.938 E.0417
G1 X105.847 Y33.546 E.03183
G1 X106.782 Y34.481 E.04174
G1 X105.854 Y34.09 E.03179
G1 X104.919 Y33.155 E.04174
G1 X103.991 Y32.764 E.03179
G1 X104.926 Y33.699 E.04174
G1 X103.998 Y33.308 E.03179
G1 X103.063 Y32.373 E.04174
G1 X102.135 Y31.981 E.0318
G1 X103.07 Y32.916 E.04174
G1 X102.142 Y32.525 E.03179
G1 X101.206 Y31.59 E.04176
G1 X100.278 Y31.199 E.03179
G1 X101.214 Y32.134 E.04176
G1 X100.286 Y31.743 E.03179
G1 X99.35 Y30.807 E.04179
G1 X98.422 Y30.416 E.03179
G1 X99.358 Y31.352 E.04179
G1 X98.429 Y30.961 E.03182
G1 X97.451 Y29.982 E.04368
M204 P1000
G1 E-2.24 F2700
;WIPE_START
G1 F7200
G1 X98.429 Y30.961 E-.49298
G1 X99.358 Y31.352 E-.35907
G1 X99.144 Y31.138 E-.10795
;WIPE_END
G1 Z.4 F720
M486 S-1
M486 S1
G1 X146.046 Y108.362 F9000
G1 Z.2 F720
G1 E3.2 F1500
M204 P600
;TYPE:Perimeter
;WIDTH:0.419999
G1 F1200
G1 X133.684 Y108.362 E.3876
;WIDTH:0.464721
G1 X133.438 Y108.339 E.00867
;WIDTH:0.509443
G1 X133.192 Y108.317 E.00958
;WIDTH:0.554165
G1 X132.946 Y108.295 E.0105
;WIDTH:0.598887
G2 X132.21 Y108.289 I-.397 J3.861 E.03408
;WIDTH:0.565155
G1 X131.72 Y108.306 E.02129
;WIDTH:0.531423
G1 X130.742 Y108.322 E.03973
;WIDTH:0.499344
G1 X129.765 Y108.322 E.03708
;WIDTH:0.534597
G1 X128.785 Y108.304 E.04007
;WIDTH:0.569527
G2 X127.494 Y108.312 I-.587 J10.178 E.05657
;WIDTH:0.519685
G1 X127.187 Y108.337 E.01221
;WIDTH:0.469842
G1 X126.881 Y108.362 E.0109
;WIDTH:0.419999
G1 X114.52 Y108.362 E.38757
G1 X114.52 Y79.836 E.89441
G1 X126.881 Y79.836 E.38757
;WIDTH:0.464722
G1 X127.127 Y79.858 E.00866
;WIDTH:0.509444
G1 X127.373 Y79.88 E.00958
;WIDTH:0.554166
G1 X127.619 Y79.903 E.0105
;WIDTH:0.598888
G2 X128.356 Y79.908 I.397 J-3.862 E.03412
;WIDTH:0.565156
G1 X128.846 Y79.891 E.02129
;WIDTH:0.531423
G1 X129.823 Y79.875 E.03969
;WIDTH:0.499344
G1 X130.8 Y79.875 E.03708
;WIDTH:0.534597
G1 X131.78 Y79.893 E.04007
;WIDTH:0.569527
G2 X133.072 Y79.886 I.587 J-10.178 E.05661
;WIDTH:0.519685
G1 X133.378 Y79.861 E.01217
;WIDTH:0.469842
G1 X133.684 Y79.836 E.0109
;WIDTH:0.419999
G1 X146.046 Y79.836 E.3876
G1 X146.046 Y82.957 E.09786
G1 X146.046 Y108.302 E.79467
M204 P1000
G1 X146.046 Y108.302 F9000
G1 X146.423 Y108.739
M204 P600
;TYPE:External perimeter
G1 F1200
G1 X114.143 Y108.739 E1.01212
G1 X114.143 Y79.459 E.91805
M73 P3 R70
M73 Q3 S70
G1 X146.423 Y79.459 E1.01212
G1 X146.423 Y82.957 E.10968
G1 X146.423 Y108.679 E.80649
M204 P1000
G1 E-2.24 F2700
;WIPE_START
G1 F7200
G1 X146.423 Y108.739 E-.02138
G1 X143.788 Y108.739 E-.93862
;WIPE_END
G1 Z.4 F720
G1 X142.406 Y100.551 F9000
G1 Z.2 F720
G1 E3.2 F1500
M204 P600
;TYPE:Perimeter
G1 F1200
G3 X133.625 Y107.423 I-12.127 J-6.449 E.36
;WIDTH:0.461518
G1 X133.395 Y107.493 E.00837
;WIDTH:0.503036
G1 X133.165 Y107.564 E.00921
;WIDTH:0.544555
G1 X132.935 Y107.634 E.01003
;WIDTH:0.586073
G3 X132.225 Y107.76 I-.806 J-2.482 E.03267
;WIDTH:0.560335
G1 X131.746 Y107.815 E.02074
;WIDTH:0.534597
G1 X130.784 Y107.866 E.03938
;WIDTH:0.499344
G1 X129.823 Y107.867 E.03647
;WIDTH:0.531422
G1 X128.863 Y107.818 E.03905
;WIDTH:0.565155
G1 X128.383 Y107.768 E.02096
;WIDTH:0.598887
G3 X127.673 Y107.647 I.047 J-2.414 E.03342
;WIDTH:0.554165
G1 X127.441 Y107.576 E.01031
;WIDTH:0.509443
G1 X127.21 Y107.504 E.00939
;WIDTH:0.464721
G1 X126.978 Y107.432 E.00852
;WIDTH:0.419999
G3 X119.96 Y103.152 I3.328 J-13.35 E.26173
G3 X116.546 Y94.118 I10.34 J-9.07 E.3094
G3 X126.94 Y80.775 I13.756 J-.004 E.57113
M73 P3 R69
M73 Q3 S69
;WIDTH:0.461518
G1 X127.17 Y80.704 E.00838
;WIDTH:0.503037
G1 X127.4 Y80.634 E.0092
;WIDTH:0.544556
G1 X127.63 Y80.563 E.01004
;WIDTH:0.586074
G3 X128.34 Y80.438 I.806 J2.482 E.03266
;WIDTH:0.560336
G1 X128.819 Y80.382 E.02075
;WIDTH:0.534597
G1 X129.781 Y80.331 E.03938
;WIDTH:0.499344
G1 X130.742 Y80.33 E.03647
;WIDTH:0.531423
G1 X131.703 Y80.379 E.03909
;WIDTH:0.565155
G1 X132.182 Y80.429 E.02091
;WIDTH:0.598887
G3 X132.892 Y80.55 I-.046 J2.415 E.03342
;WIDTH:0.554165
G1 X133.124 Y80.622 E.01033
;WIDTH:0.509443
G1 X133.355 Y80.693 E.00937
;WIDTH:0.464721
G1 X133.587 Y80.765 E.00852
;WIDTH:0.419999
G3 X140.605 Y85.045 I-3.327 J13.35 E.26173
G3 X142.434 Y100.497 I-10.326 J9.057 E.51865
M204 P1000
G1 X142.434 Y100.497 F9000
G1 X142.08 Y100.363
M204 P600
;TYPE:External perimeter
G1 F1200
G3 X120.24 Y102.9 I-11.795 J-6.261 E.80986
G3 X116.923 Y94.105 I10.056 J-8.817 E.30115
G3 X140.325 Y85.297 I13.357 J-.004 E1.01442
G3 X142.108 Y100.31 I-10.04 J8.805 E.5039
M204 P1000
G1 E-2.24 F2700
;WIPE_START
G1 F7200
G1 X142.08 Y100.363 E-.02135
G3 X140.624 Y102.554 I-11.794 J-6.261 E-.93865
;WIPE_END
G1 Z.4 F720
G1 X145.104 Y80.005 F9000
G1 Z.2 F720
G1 E3.2 F1500
M204 P600
;TYPE:Solid infill
;WIDTH:0.424411
G1 F1200
G1 X145.706 Y80.607 E.02701
G1 X145.706 Y81.147 E.01713
G1 X144.734 Y80.175 E.0436
G1 X144.195 Y80.175 E.0171
G1 X145.706 Y81.686 E.06778
G1 X145.706 Y82.226 E.01713
G1 X143.655 Y80.175 E.09201
G1 X143.116 Y80.175 E.0171
G1 X145.706 Y82.765 E.11619
G1 X145.706 Y83.305 E.01713
