; generated by PrusaSlicer 2.7.4+MacOS-arm64 on 2024-10-12 at 06:38:29 UTC


;
;

;
;

;
;

;
;
; 

; external perimeters extrusion width = 0.45mm
; perimeters extrusion width = 0.45mm
; infill extrusion width = 0.45mm
; solid infill extrusion width = 0.45mm
; top infill extrusion width = 0.40mm
; first layer extrusion width = 0.42mm

M73 P0 R68
M73 Q0 S68
M201 X2500 Y2500 Z400 E5000 ; sets maximum accelerations, mm/sec^2
M203 X180 Y180 Z12 E80 ; sets maximum feedrates, mm / sec
M204 P2000 R1250 T2500 ; sets acceleration (P, T) and retract acceleration (R), mm/sec^2
M205 X8.00 Y8.00 Z2.00 E10.00 ; sets the jerk limits, mm/sec
M205 S0 T0 ; sets the minimum extruding and travel feed rate, mm/sec

M486 S0
M486 Aaframe.stl
M486 S-1

;TYPE:Custom
M862.3 P "MINI" ; printer model check
G90 ; use absolute coordinates
M83 ; extruder relative mode
M104 S170 ; set extruder temp for bed leveling
M140 S85 ; set bed temp
M109 R170 ; wait for bed leveling temp
M190 S85 ; wait for bed temp
M204 T1250 ; set travel acceleration
G28 ; home all without mesh bed level
G29 ; mesh bed leveling 
M204 T2500 ; restore travel acceleration
M104 S240 ; set extruder temp
G92 E0
G1 Y-2 X179 F2400
G1 Z3 F720
M73 P0 R67
M73 Q0 S67
M109 S240 ; wait for extruder temp

; intro line
G1 X170 F1000
G1 Z0.2 F720
G1 X110 E8 F900
G1 X40 E10 F700
G92 E0

M221 S95 ; set flow
G21 ; set units to millimeters
G90 ; use absolute coordinates
M83 ; use relative distances for extrusion
M900 K0.2 ; Filament gcode

M107
;LAYER_CHANGE
;Z:0.2
;HEIGHT:0.2
G1 E-3.2 F2700
G1 Z.4 F720
G1 X53.851 Y20.185 F9000
G1 Z.2 F720
G1 E3.2 F1500
M204 P600
;TYPE:Skirt/Brim
;WIDTH:0.42
G1 F1200
G1 X54.439 Y18.953 E.0428
G1 X56.2 Y18.173 E.06039
G1 X123.8 Y18.173 E2.11955
G1 X125.107 Y18.565 E.04278
G1 X126.149 Y20.185 E.06039
G1 X126.877 Y25.008 E.15293
G1 X129.077 Y148.908 E3.88541
G1 X128.454 Y150.554 E.05518
G1 X118.854 Y161.054 E.44608
G1 X117.1 Y161.827 E.0601
G1 X62.9 Y161.827 E1.6994
G1 X61.146 Y161.054 E.0601
G1 X51.546 Y150.554 E.44608
G1 X50.923 Y148.908 E.05518
G1 X53.123 Y25.008 E3.88541
G1 X53.842 Y20.244 E.15106
M204 P1000
G1 E-2.24 F2700
;WIPE_START
G1 F7200
G1 X53.851 Y20.185 E-.02126
G1 X54.439 Y18.953 E-.48633
G1 X55.6 Y18.439 E-.45241
;WIPE_END
G1 Z.4 F720
M486 S0
G1 X123.142 Y26.775 F9000
G1 Z.2 F720
G1 E3.2 F1500
M204 P600
;TYPE:Perimeter
;WIDTH:0.512923
G1 F1200
G1 X123.093 Y26.697 E.0036
;WIDTH:0.466461
G1 X122.957 Y26.476 E.00914
;WIDTH:0.43585
G1 X122.82 Y26.392 E.00525
;WIDTH:0.465114
G1 X122.705 Y26.359 E.0042
;WIDTH:0.494377
G1 X122.59 Y26.326 E.00449
G1 X104.879 Y26.326 E.66485
;WIDTH:0.500655
G2 X104.626 Y26.43 I-.009 J.336 E.01072
;WIDTH:0.460327
G1 X104.479 Y26.529 E.00615
;WIDTH:0.45719
G1 X104.377 Y26.729 E.00773
;WIDTH:0.494381
G1 X104.276 Y26.929 E.00841
G1 X104.276 Y31.726 E.18008
G1 X103.824 Y31.726 E.01697
G1 X103.824 Y26.929 E.18008
G1 X103.806 Y26.383 E.02051
;WIDTH:0.45719
G1 X103.787 Y25.837 E.01882
;WIDTH:0.419999
G1 X104.192 Y25.837 E.0127
;WIDTH:0.457188
G1 X104.535 Y25.856 E.01183
;WIDTH:0.494377
G1 X104.879 Y25.874 E.01293
G1 X122.59 Y25.874 E.66485
;WIDTH:0.494609
G1 X122.777 Y25.793 E.00765
;WIDTH:0.457304
G1 X122.944 Y25.712 E.0064
;WIDTH:0.469244
G1 X123.071 Y25.54 E.00758
;WIDTH:0.518488
G2 X123.226 Y25.103 I-.401 J-.389 E.01891
;WIDTH:0.495725
G1 X123.454 Y23.631 E.05608
G1 X123.674 Y25.105 E.05611
;WIDTH:0.518488
G2 X123.7 Y25.74 I3.723 J.163 E.02516
;WIDTH:0.469244
G1 X123.731 Y26.081 E.01214
;WIDTH:0.466461
G1 X123.715 Y26.495 E.01459
;WIDTH:0.512923
G1 X123.699 Y26.909 E.01619
M73 P1 R67
M73 Q1 S67
G1 X125.85 Y146.963 E4.69257
;WIDTH:0.475532
G1 X125.872 Y147.46 E.0179
;WIDTH:0.447766
G1 X125.895 Y147.956 E.01671
;WIDTH:0.419999
G1 X125.904 Y148.481 E.01646
G1 X116.613 Y153.417 E.32987
;WIDTH:0.45719
G1 X116.444 Y153.667 E.01039
;WIDTH:0.494381
G1 X116.276 Y153.917 E.01131
G1 X116.276 Y157.571 E.13717
;WIDTH:0.500658
G1 X116.293 Y158.189 E.02353
;WIDTH:0.460329
G1 X116.313 Y158.663 E.01647
;WIDTH:0.419999
G1 X115.908 Y158.663 E.0127
;WIDTH:0.457188
G1 X115.565 Y158.644 E.01183
;WIDTH:0.494377
G1 X115.221 Y158.626 E.01293
G1 X64.779 Y158.626 E1.89353
G1 X64.233 Y158.644 E.02051
;WIDTH:0.457188
G1 X63.687 Y158.663 E.01882
;WIDTH:0.419999
G1 X63.687 Y158.258 E.0127
;WIDTH:0.45719
G1 X63.706 Y157.915 E.01183
;WIDTH:0.494381
G1 X63.724 Y157.571 E.01293
G1 X63.724 Y153.917 E.13717
G1 X63.556 Y153.667 E.01131
;WIDTH:0.45719
G1 X63.387 Y153.417 E.01039
;WIDTH:0.419999
G1 X54.096 Y148.481 E.32987
G1 X54.105 Y147.956 E.01646
;WIDTH:0.447766
G1 X54.128 Y147.46 E.01671
;WIDTH:0.475533
G1 X54.15 Y146.963 E.0179
;WIDTH:0.512925
G1 X56.301 Y26.909 E4.69259
G1 X56.285 Y26.495 E.01619
;WIDTH:0.466462
G1 X56.269 Y26.081 E.01459
;WIDTH:0.45806
G1 X56.296 Y25.6 E.01663
;WIDTH:0.496121
G1 X56.324 Y25.119 E.01816
G1 X56.549 Y23.613 E.05738
G1 X56.774 Y25.104 E.05682
;WIDTH:0.518038
G2 X56.929 Y25.538 I.554 J.047 E.01877
;WIDTH:0.469019
G1 X57.056 Y25.712 E.00763
;WIDTH:0.435849
G1 X57.19 Y25.801 E.00526
;WIDTH:0.465113
G1 X57.3 Y25.838 E.00407
;WIDTH:0.494377
G1 X57.41 Y25.874 E.00434
G1 X75.121 Y25.874 E.66485
G1 X75.667 Y25.856 E.02051
;WIDTH:0.457188
G1 X76.213 Y25.837 E.01882
;WIDTH:0.419999
G1 X76.213 Y26.242 E.0127
;WIDTH:0.45719
G1 X76.194 Y26.585 E.01183
;WIDTH:0.494381
G1 X76.176 Y26.929 E.01293
G1 X76.176 Y31.726 E.18008
G1 X75.724 Y31.726 E.01697
G1 X75.724 Y26.929 E.18008
G1 X75.623 Y26.729 E.00841
;WIDTH:0.457188
G1 X75.521 Y26.529 E.00773
G1 X75.321 Y26.427 E.00773
;WIDTH:0.494377
G1 X75.121 Y26.326 E.00841
G1 X57.41 Y26.326 E.66485
;WIDTH:0.494608
G1 X57.213 Y26.401 E.00792
;WIDTH:0.457304
G1 X57.043 Y26.476 E.0064
;WIDTH:0.466462
G1 X56.907 Y26.697 E.00914
;WIDTH:0.512925
G1 X56.771 Y26.917 E.01011
G1 X54.583 Y146.971 E4.69262
;WIDTH:0.481669
G1 X54.587 Y147.074 E.00376
M73 P1 R66
M73 Q1 S66
G1 X54.749 Y147.278 E.0095
;WIDTH:0.450834
G1 X54.911 Y147.481 E.00881
;WIDTH:0.419999
G1 X64.213 Y152.423 E.33026
G1 X64.213 Y152.921 E.01561
;WIDTH:0.45719
G1 X64.194 Y153.419 E.01717
;WIDTH:0.494381
G1 X64.176 Y153.917 E.01871
G1 X64.176 Y157.571 E.13717
;WIDTH:0.500659
G2 X64.28 Y157.824 I.336 J.009 E.01072
;WIDTH:0.460329
G1 X64.379 Y157.971 E.00615
;WIDTH:0.457188
G1 X64.579 Y158.073 E.00773
;WIDTH:0.494377
G1 X64.779 Y158.174 E.00841
G1 X115.221 Y158.174 E1.89353
;WIDTH:0.500655
G2 X115.474 Y158.07 I.009 J-.336 E.01072
;WIDTH:0.460329
G2 X115.72 Y157.824 I-.242 J-.488 E.01229
;WIDTH:0.500658
G2 X115.824 Y157.571 I-.232 J-.244 E.01072
;WIDTH:0.494381
G2 X115.806 Y153.17 I-176.063 J-1.456 E.16522
;WIDTH:0.45719
G1 X115.787 Y152.423 E.02574
;WIDTH:0.419999
G1 X125.089 Y147.481 E.33026
;WIDTH:0.447766
G1 X125.253 Y147.226 E.01021
;WIDTH:0.475533
G1 X125.417 Y146.971 E.01091
;WIDTH:0.512923
G1 X123.229 Y26.917 E4.6926
G1 X123.173 Y26.826 E.00418
M204 P1000
G1 X123.173 Y26.826 F9000
G1 X122.806 Y26.925
M204 P600
;TYPE:External perimeter
;WIDTH:0.419999
G1 F1200
G2 X122.617 Y26.74 I-.221 J.036 E.00887
G1 X104.879 Y26.74 E.55616
G2 X104.69 Y26.929 I.029 J.218 E.00901
G1 X104.69 Y32.14 E.16339
G1 X103.41 Y32.14 E.04013
G1 X103.41 Y25.46 E.20945
G1 X122.59 Y25.46 E.60137
G2 X122.776 Y25.301 I-.052 J-.25 E.008
G1 X123.153 Y22.862 E.07738
;WIDTH:0.451131
G1 X123.186 Y22.624 E.00816
;WIDTH:0.482263
G2 X123.238 Y21.943 I-4.581 J-.696 E.02497
;WIDTH:0.456348
G1 X123.258 Y21.502 E.01518
;WIDTH:0.430433
G1 X123.406 Y20.993 E.01708
G3 X123.494 Y20.993 I.044 J.024 E.0035
G1 X123.643 Y21.527 E.01786
;WIDTH:0.456348
G1 X123.65 Y21.959 E.01485
;WIDTH:0.482263
G2 X123.705 Y22.608 I2.149 J.144 E.02389
;WIDTH:0.451131
G1 X123.753 Y22.824 E.00751
;WIDTH:0.419999
G1 X124.091 Y25.085 E.07168
G1 X126.286 Y148.706 E3.87665
G1 X116.79 Y153.75 E.33714
M73 P2 R66
M73 Q2 S66
G1 X116.69 Y153.917 E.0061
G1 X116.69 Y159.04 E.16063
G1 X63.31 Y159.04 E1.67369
G1 X63.31 Y153.917 E.16063
G1 X63.21 Y153.75 E.0061
G1 X53.714 Y148.706 E.33714
G1 X55.916 Y25.043 E3.87797
;WIDTH:0.451352
G1 X56.3 Y22.573 E.08489
;WIDTH:0.475589
G1 X56.339 Y22.391 E.0067
G1 X56.359 Y21.499 E.0321
;WIDTH:0.43199
G1 X56.517 Y20.962 E.01811
G1 X56.584 Y20.991 E.00236
G1 X56.743 Y21.6 E.02036
;WIDTH:0.451352
G1 X56.796 Y22.573 E.03309
G1 X57.185 Y25.042 E.08488
;WIDTH:0.419999
G2 X57.292 Y25.418 I.695 J.005 E.01242
G1 X57.41 Y25.46 E.00393
G1 X76.59 Y25.46 E.60137
G1 X76.59 Y32.14 E.20945
G1 X75.31 Y32.14 E.04013
G1 X75.31 Y26.929 E.16339
G2 X75.121 Y26.74 I-.218 J.029 E.00901
G1 X57.41 Y26.74 E.55532
G1 X57.316 Y26.752 E.00297
G1 X57.194 Y26.925 E.00664
G1 X54.988 Y146.978 E3.76481
G1 X55.088 Y147.148 E.00618
G1 X64.59 Y152.196 E.33736
G1 X64.59 Y157.571 E.16853
G2 X64.779 Y157.76 I.218 J-.029 E.00901
G1 X115.221 Y157.76 E1.58157
G2 X115.41 Y157.571 I-.029 J-.218 E.00901
G1 X115.41 Y152.196 E.16853
G1 X124.912 Y147.148 E.33736
G1 X125.012 Y146.978 E.00618
G1 X122.807 Y26.985 E3.76293
M204 P1000
G1 E-2.24 F2700
;WIPE_START
G1 F7200
G1 X122.806 Y26.925 E-.02138
G2 X122.617 Y26.74 I-.221 J.036 E-.10081
G1 X120.265 Y26.74 E-.83781
;WIPE_END
G1 Z.4 F720
G1 X123.083 Y25.804 F9000
G1 Z.2 F720
G1 E3.2 F1500
M204 P600
;TYPE:Solid infill
;WIDTH:0.448963
G1 F1200
G1 X123.544 Y26.265 E.02201
M204 P1000
G1 E-2.24 F2700
;WIPE_START
G1 F7200
G1 X123.083 Y25.804 E-.23226
;WIPE_END
G1 E-.72774 F2700
G1 Z.4 F720
G1 X103.957 Y26.169 F9000
G1 Z.2 F720
G1 E3.2 F1500
M204 P600
;WIDTH:0.495415
G1 F1200
G1 X104.301 Y26.514 E.01833
M204 P1000
G1 E-2.24 F2700
;WIPE_START
G1 F7200
G1 X103.957 Y26.169 E-.17356
;WIPE_END
G1 E-.78644 F2700
G1 Z.4 F720
G1 X56.449 Y26.017 F9000
G1 Z.2 F720
G1 E3.2 F1500
M204 P600
;WIDTH:0.489048
G1 F1200
G1 X56.874 Y26.442 E.0223
M204 P1000
G1 E-2.24 F2700
;WIPE_START
G1 F7200
G1 X56.449 Y26.017 E-.21412
;WIPE_END
G1 E-.74588 F2700
G1 Z.4 F720
G1 X64.014 Y153.319 F9000
G1 Z.2 F720
G1 E3.2 F1500
M204 P600
;WIDTH:0.4454
G1 F1200
G1 X62.696 Y152.002 E.06236
G1 X61.482 Y151.356 E.04602
G1 X62.899 Y152.774 E.06709
G1 X61.685 Y152.129 E.04601
G1 X60.267 Y150.711 E.06711
G1 X59.053 Y150.066 E.04601
G1 X60.471 Y151.484 E.06711
G1 X59.257 Y150.839 E.04601
G1 X57.839 Y149.421 E.06711
G1 X56.625 Y148.776 E.04601
G1 X58.042 Y150.194 E.06709
G1 X56.828 Y149.549 E.04601
G1 X55.41 Y148.131 E.06711
G1 X54.726 Y147.767 E.02593
G1 X54.488 Y147.484 E.01237
G1 X54.463 Y147.753 E.00904
G1 X56.024 Y149.314 E.07388
M204 P1000
G1 E-2.24 F2700
;WIPE_START
G1 F7200
G1 X54.463 Y147.753 E-.78645
G1 X54.488 Y147.484 E-.09624
G1 X54.627 Y147.65 E-.07731
;WIPE_END
G1 Z.4 F720
G1 X115.648 Y158.161 F9000
G1 Z.2 F720
G1 E3.2 F1500
M204 P600
;WIDTH:0.495415
G1 F1200
G1 X115.981 Y158.493 E.01769
M204 P1000
G1 E-2.24 F2700
;WIPE_START
G1 F7200
G1 X115.648 Y158.161 E-.16752
;WIPE_END
G1 E-.79248 F2700
G1 Z.4 F720
G1 X125.223 Y147.546 F9000
G1 Z.2 F720
G1 E3.2 F1500
M204 P600
;WIDTH:0.431974
G1 F1200
G1 X125.549 Y147.872 E.01491
G1 X125.561 Y148.279 E.01317
G1 X125.46 Y148.333 E.00371
G1 X125.026 Y147.899 E.01986
G1 X124.667 Y148.09 E.01316
G1 X125.101 Y148.524 E.01986
G1 X124.742 Y148.715 E.01316
G1 X124.308 Y148.281 E.01986
G1 X123.948 Y148.472 E.01318
G1 X124.382 Y148.906 E.01986
G1 X124.023 Y149.097 E.01316
G1 X123.589 Y148.663 E.01986
G1 X123.23 Y148.854 E.01316
G1 X123.664 Y149.288 E.01986
G1 X123.304 Y149.478 E.01317
G1 X122.87 Y149.044 E.01986
G1 X122.511 Y149.235 E.01316
G1 X122.945 Y149.669 E.01986
G1 X122.586 Y149.86 E.01316
G1 X122.152 Y149.426 E.01986
G1 X121.792 Y149.617 E.01318
G1 X122.226 Y150.051 E.01986
G1 X121.867 Y150.242 E.01316
G1 X121.433 Y149.808 E.01986
G1 X121.074 Y149.999 E.01316
G1 X121.508 Y150.433 E.01986
G1 X121.148 Y150.624 E.01318
G1 X120.714 Y150.19 E.01986
G1 X120.355 Y150.381 E.01316
G1 X120.789 Y150.815 E.01986
G1 X120.43 Y151.006 E.01316
G1 X119.996 Y150.572 E.01986
G1 X119.636 Y150.762 E.01317
G1 X120.07 Y151.196 E.01986
G1 X119.711 Y151.387 E.01316
G1 X119.277 Y150.953 E.01986
G1 X118.918 Y151.144 E.01316
G1 X119.352 Y151.578 E.01986
G1 X118.992 Y151.769 E.01318
G1 X118.558 Y151.335 E.01986
G1 X118.199 Y151.526 E.01316
G1 X118.633 Y151.96 E.01986
G1 X118.274 Y152.151 E.01316
M73 P3 R65
M73 Q3 S65
G1 X117.84 Y151.717 E.01986
G1 X117.48 Y151.908 E.01318
G1 X117.914 Y152.342 E.01986
G1 X117.555 Y152.533 E.01316
G1 X117.121 Y152.099 E.01986
G1 X116.762 Y152.29 E.01316
G1 X117.196 Y152.724 E.01986
G1 X116.837 Y152.914 E.01314
G1 X116.403 Y152.48 E.01986
G1 X116.126 Y152.627 E.01014
G1 X116.126 Y152.755 E.00414
G1 X116.477 Y153.105 E.01604
G1 X116.423 Y153.134 E.00198
G1 X116.228 Y153.407 E.01085
G1 X115.974 Y153.152 E.01164
M204 P1000
G1 E-2.24 F2700
;WIPE_START
G1 F7200
G1 X116.228 Y153.407 E-.12822
G1 X116.423 Y153.134 E-.11952
G1 X116.477 Y153.105 E-.02184
G1 X116.126 Y152.755 E-.17659
G1 X116.126 Y152.627 E-.0456
G1 X116.403 Y152.48 E-.11172
G1 X116.837 Y152.914 E-.21866
G1 X117.179 Y152.733 E-.13785
;WIPE_END
G1 Z.4 F720
G1 X105.798 Y92.525 F9000
G1 Z.2 F720
G1 E3.2 F1500
M204 P600
;TYPE:Perimeter
;WIDTH:0.419999
G1 F1200
G3 X92.983 Y103.806 I-13.995 J-2.978 E.57359
;WIDTH:0.464555
G1 X92.882 Y103.791 E.00358
;WIDTH:0.50911
G1 X92.781 Y103.775 E.00396
;WIDTH:0.553666
G1 X92.68 Y103.76 E.00434
;WIDTH:0.598221
G2 X92.287 Y103.771 I-.162 J1.212 E.01823
;WIDTH:0.585012
G1 X91.865 Y103.786 E.01903
;WIDTH:0.555992
G1 X91.442 Y103.8 E.01806
;WIDTH:0.526971
G1 X90.461 Y103.817 E.03949
;WIDTH:0.494741
G1 X89.481 Y103.816 E.03682
;WIDTH:0.530128
G1 X88.498 Y103.799 E.03983
;WIDTH:0.561678
G1 X87.995 Y103.775 E.02172
;WIDTH:0.593227
G2 X87.373 Y103.766 I-.367 J3.538 E.0285
;WIDTH:0.54992
G1 X87.254 Y103.779 E.00505
;WIDTH:0.506613
G1 X87.136 Y103.793 E.00458
;WIDTH:0.463306
G1 X87.017 Y103.806 E.00418
;WIDTH:0.419999
G3 X87.017 Y75.294 I1.179 J-14.256 E1.33508
;WIDTH:0.464555
G1 X87.118 Y75.309 E.00358
;WIDTH:0.50911
G1 X87.219 Y75.325 E.00396
;WIDTH:0.553666
G1 X87.32 Y75.34 E.00434
;WIDTH:0.598221
G2 X87.713 Y75.329 I.162 J-1.212 E.01823
;WIDTH:0.585012
G1 X88.135 Y75.314 E.01903
;WIDTH:0.555986
G1 X88.558 Y75.3 E.01806
;WIDTH:0.526959
G1 X89.539 Y75.283 E.03949
;WIDTH:0.494703
G1 X90.519 Y75.284 E.03681
;WIDTH:0.529499
G1 X91.487 Y75.301 E.03917
;WIDTH:0.561362
G1 X91.997 Y75.324 E.02201
;WIDTH:0.593225
G2 X92.627 Y75.334 I.372 J-3.627 E.02887
;WIDTH:0.549919
G1 X92.746 Y75.321 E.00505
;WIDTH:0.506612
G1 X92.864 Y75.307 E.00458
;WIDTH:0.463306
G1 X92.983 Y75.294 E.00418
;WIDTH:0.419999
G3 X106.111 Y89.591 I-1.181 J14.26 E.66882
G3 X105.81 Y92.467 I-14.308 J-.044 E.09082
M204 P1000
G1 X105.81 Y92.467 F9000
G1 X106.167 Y92.593
M204 P600
;TYPE:External perimeter
G1 F1200
G3 X92.313 Y104.231 I-14.379 J-3.053 E.61109
G1 X87.687 Y104.231 E.14504
G3 X87.687 Y74.869 I.519 J-14.681 E1.41483
G1 X92.314 Y74.869 E.14508
G3 X106.488 Y89.604 I-.527 J14.692 E.70888
G3 X106.18 Y92.534 I-14.7 J-.064 E.09253
M204 P1000
G1 E-2.24 F2700
;WIPE_START
G1 F7200
G1 X106.167 Y92.593 E-.02152
G3 X105.393 Y95.107 I-14.38 J-3.053 E-.93848
;WIPE_END
G1 Z.4 F720
G1 X103.671 Y91.279 F9000
G1 Z.2 F720
G1 E3.2 F1500
M204 P600
;TYPE:Perimeter
G1 F1200
G3 X92.874 Y103.026 I-13.672 J-1.731 E.53351
;WIDTH:0.462458
G1 X92.752 Y103.073 E.00456
;WIDTH:0.504917
G1 X92.63 Y103.121 E.00504
;WIDTH:0.547376
G1 X92.508 Y103.168 E.00548
;WIDTH:0.589835
G3 X91.927 Y103.264 I-.59 J-1.752 E.02689
;WIDTH:0.559982
G1 X91.468 Y103.314 E.01985
;WIDTH:0.530129
G1 X90.504 Y103.365 E.03911
;WIDTH:0.494741
G1 X89.539 Y103.366 E.03625
;WIDTH:0.526972
G1 X88.575 Y103.317 E.03885
;WIDTH:0.555993
G1 X88.163 Y103.274 E.01767
;WIDTH:0.585013
G1 X87.751 Y103.232 E.01867
;WIDTH:0.598221
G1 X87.498 Y103.196 E.0118
G1 X87.405 Y103.154 E.00471
;WIDTH:0.553666
G1 X87.312 Y103.111 E.00435
;WIDTH:0.50911
G1 X87.219 Y103.069 E.00396
;WIDTH:0.464555
G1 X87.126 Y103.026 E.00359
;WIDTH:0.419999
G1 X85.929 Y102.717 E.03876
G3 X87.126 Y76.074 I4.072 J-13.165 E1.13703
;WIDTH:0.462458
G1 X87.248 Y76.027 E.00456
;WIDTH:0.504917
G1 X87.37 Y75.979 E.00504
;WIDTH:0.547376
G1 X87.492 Y75.932 E.00548
;WIDTH:0.589835
G3 X88.073 Y75.836 I.59 J1.752 E.02689
;WIDTH:0.559976
G1 X88.532 Y75.786 E.01985
;WIDTH:0.530117
G1 X89.497 Y75.735 E.03915
;WIDTH:0.494716
G1 X90.461 Y75.734 E.03621
;WIDTH:0.526409
G1 X91.411 Y75.782 E.03824
;WIDTH:0.555779
G1 X91.831 Y75.826 E.01801
