; generated by PrusaSlicer 2.7.4+MacOS-arm64 on 2024-10-07 at 18:55:08 UTC


;
;

;
;

;
;

;
;
; 

; external perimeters extrusion width = 0.45mm
; perimeters extrusion width = 0.45mm
; infill extrusion width = 0.45mm
; solid infill extrusion width = 0.45mm
; top infill extrusion width = 0.40mm
; first layer extrusion width = 0.42mm

; external perimeters extrusion width = 0.45mm
; perimeters extrusion width = 0.45mm
; infill extrusion width = 0.45mm
; solid infill extrusion width = 0.45mm
; top infill extrusion width = 0.40mm
; first layer extrusion width = 0.42mm

; external perimeters extrusion width = 0.45mm
; perimeters extrusion width = 0.45mm
; infill extrusion width = 0.45mm
; solid infill extrusion width = 0.45mm
; top infill extrusion width = 0.40mm
; first layer extrusion width = 0.42mm

M73 P0 R208
M73 Q0 S208
M201 X2500 Y2500 Z400 E5000 ; sets maximum accelerations, mm/sec^2
M203 X180 Y180 Z12 E80 ; sets maximum feedrates, mm / sec
M204 P2000 R1250 T2500 ; sets acceleration (P, T) and retract acceleration (R), mm/sec^2
M205 X8.00 Y8.00 Z2.00 E10.00 ; sets the jerk limits, mm/sec
M205 S0 T0 ; sets the minimum extruding and travel feed rate, mm/sec

M486 S0
M486 Alantern.stl_1
M486 S-1
M486 S1
M486 Alantern.stl_2
M486 S-1
M486 S2
M486 Alantern.stl_3
M486 S-1

;TYPE:Custom
M862.3 P "MINI" ; printer model check
G90 ; use absolute coordinates
M83 ; extruder relative mode
M104 S170 ; set extruder temp for bed leveling
M140 S85 ; set bed temp
M109 R170 ; wait for bed leveling temp
M190 S85 ; wait for bed temp
M204 T1250 ; set travel acceleration
G28 ; home all without mesh bed level
G29 ; mesh bed leveling 
M204 T2500 ; restore travel acceleration
M104 S240 ; set extruder temp
G92 E0
G1 Y-2 X179 F2400
G1 Z3 F720
M109 S240 ; wait for extruder temp

; intro line
G1 X170 F1000
G1 Z0.2 F720
G1 X110 E8 F900
G1 X40 E10 F700
G92 E0

M221 S95 ; set flow
G21 ; set units to millimeters
G90 ; use absolute coordinates
M83 ; use relative distances for extrusion
M900 K0.2 ; Filament gcode

M107
;LAYER_CHANGE
;Z:0.2
;HEIGHT:0.2
G1 E-3.2 F2700
G1 Z.4 F720
G1 X53.016 Y51.875 F9000
G1 Z.2 F720
G1 E3.2 F1500
M204 P600
;TYPE:Skirt/Brim
;WIDTH:0.42
G1 F1200
G1 X56.004 Y48.888 E.13247
G1 X56.533 Y48.489 E.02078
G1 X79.93 Y35.557 E.8382
G3 X93.81 Y33.041 I11.243 J22.488 E.44831
G3 X102.383 Y35.617 I-3.089 J25.834 E.28208
G1 X125.66 Y48.489 E.83399
G1 X126.19 Y48.888 E.0208
G1 X129.178 Y51.875 E.13247
G1 X129.845 Y53.187 E.04615
G1 X138.103 Y105.871 E1.67204
G3 X86.435 Y134.169 I-31.702 J3.436 E2.35489
G1 X45.868 Y102.339 E1.61675
G3 X40.205 Y75.673 I13.517 J-16.805 E.92525
G1 X52.6 Y52.437 E.82572
G1 X52.98 Y51.924 E.02002
M204 P1000
G1 E-2.24 F2700
;WIPE_START
G1 F7200
G1 X53.016 Y51.875 E-.02166
G1 X54.879 Y50.013 E-.93834
;WIPE_END
G1 Z.4 F720
G1 X86.521 Y87.95 F9000
G1 Z.2 F720
G1 E3.2 F1500
M204 P600
G1 F1200
G3 X106.508 Y80.119 I19.904 J21.378 E.68921
G1 X108.014 Y80.162 E.04724
G3 X86.477 Y87.99 I-1.589 J29.166 E5.01617
M73 P0 R207
M73 Q0 S207
M204 P1000
G1 X86.477 Y87.99 F9000
G1 X86.725 Y88.256
M204 P600
G1 F1200
G3 X104.843 Y80.538 I19.68 J21.072 E.63015
G1 X106.503 Y80.496 E.05206
G3 X86.681 Y88.297 I-.098 J28.832 E4.99611
M204 P1000
G1 X86.681 Y88.297 F9000
G1 X86.949 Y88.582
M204 P600
G1 F1200
G3 X106.497 Y80.873 I19.476 J20.746 E.67482
G1 X107.964 Y80.914 E.04601
G3 X86.905 Y88.623 I-1.539 J28.414 E4.8832
M204 P1000
G1 X86.905 Y88.623 F9000
G1 X87.154 Y88.888
M204 P600
G1 F1200
G3 X104.893 Y81.29 I19.251 J20.44 E.61766
G1 X106.491 Y81.25 E.05012
G3 X87.111 Y88.929 I-.086 J28.078 E4.86203
M204 P1000
G1 X87.111 Y88.929 F9000
G1 X87.379 Y89.213
M204 P600
G1 F1200
G3 X106.486 Y81.627 I19.046 J20.116 E.66037
G1 X107.913 Y81.667 E.04476
G3 X87.336 Y89.254 I-1.488 J27.662 E4.75039
M204 P1000
G1 X87.336 Y89.254 F9000
G1 X87.586 Y89.517
M204 P600
G1 F1200
G3 X104.943 Y82.043 I18.819 J19.812 E.60502
G1 X106.481 Y82.004 E.04824
G3 X87.542 Y89.559 I-.076 J27.325 E4.72794
M204 P1000
G1 X87.542 Y89.559 F9000
G1 X87.813 Y89.842
M204 P600
G1 F1200
G3 X106.475 Y82.381 I18.612 J19.487 E.64577
G1 X107.863 Y82.419 E.04354
G3 X87.769 Y89.883 I-1.438 J26.91 E4.61762
M204 P1000
G1 X87.769 Y89.883 F9000
G1 X88.02 Y90.145
M204 P600
G1 F1200
G3 X104.993 Y82.796 I18.385 J19.184 E.59232
G1 X106.47 Y82.758 E.04633
G3 X87.977 Y90.187 I-.065 J26.571 E4.59402
M73 P0 R206
M73 Q0 S206
M204 P1000
G1 X87.977 Y90.187 F9000
G1 X88.249 Y90.468
M204 P600
G1 F1200
G3 X106.464 Y83.135 I18.177 J18.861 E.63107
G1 X107.813 Y83.172 E.04231
G3 X88.206 Y90.51 I-1.387 J26.157 E4.48501
M204 P1000
G1 X88.206 Y90.51 F9000
G1 X88.458 Y90.771
M204 P600
G1 F1200
G3 X105.043 Y83.548 I17.947 J18.558 E.57948
G1 X106.459 Y83.512 E.04441
G3 X88.415 Y90.813 I-.054 J25.817 E4.46021
M204 P1000
G1 X88.415 Y90.813 F9000
G1 X88.688 Y91.093
M204 P600
G1 F1200
G3 X106.454 Y83.889 I17.738 J18.236 E.61631
G1 X107.763 Y83.924 E.04106
G3 X88.645 Y91.135 I-1.337 J25.405 E4.35246
M73 P1 R206
M73 Q1 S206
M204 P1000
G1 X88.645 Y91.135 F9000
G1 X88.898 Y91.395
M204 P600
G1 F1200
G3 X105.092 Y84.301 I17.507 J17.934 E.56652
G1 X106.449 Y84.266 E.04256
G3 X88.855 Y91.436 I-.044 J25.063 E4.32647
M204 P1000
G1 X88.855 Y91.436 F9000
G1 X89.13 Y91.716
M204 P600
G1 F1200
G3 X106.444 Y84.643 I17.296 J17.613 E.60144
G1 X107.713 Y84.677 E.0398
G3 X89.087 Y91.758 I-1.287 J24.652 E4.22004
M204 P1000
G1 E-2.24 F2700
;WIPE_START
G1 F7200
G1 X89.13 Y91.716 E-.02141
G3 X91.105 Y89.974 I17.296 J17.613 E-.93859
;WIPE_END
G1 Z.4 F720
G1 X89.8 Y79.639 F9000
G1 Z.2 F720
G1 E3.2 F1500
M204 P600
G1 F1200
G3 X70.033 Y64.182 I1.297 J-22.026 E.83687
G1 X64.716 Y64.182 E.16671
G1 X63.354 Y63.806 E.0443
G3 X61.572 Y64.368 I-2.359 J-4.37 E.05894
G3 X58.368 Y64.182 I-.94 J-11.439 E.10096
G1 X57.44 Y63.788 E.03161
G1 X55.945 Y62.479 E.0623
G3 X55.01 Y60.179 I4.855 J-3.316 E.07844
G1 X54.983 Y55.356 E.15122
G3 X55.786 Y52.982 I5.811 J.642 E.07919
G3 X58.097 Y51.153 I4.716 J3.584 E.09339
G1 X59.361 Y50.864 E.04065
G1 X61.81 Y50.896 E.07679
G3 X63.349 Y51.432 I-.815 J4.818 E.05134
G1 X64.649 Y51.065 E.04235
G1 X70.032 Y51.058 E.16878
G3 X92.28 Y35.587 I21.077 J6.578 E.91476
G3 X112.161 Y51.055 I-1.198 J22.05 E.84046
G1 X117.478 Y51.055 E.16671
G1 X118.843 Y51.433 E.04441
G3 X120.43 Y50.891 I2.329 J4.228 E.05285
G1 X122.907 Y50.87 E.07767
G3 X126.484 Y53.085 I-.667 J5.073 E.13595
G1 X127.172 Y54.958 E.06256
G1 X127.189 Y60.107 E.16144
G3 X126.272 Y62.444 I-5.798 J-.929 E.07933
G1 X124.902 Y63.701 E.0583
G3 X122.883 Y64.367 I-2.814 J-5.131 E.06703
G3 X119.917 Y64.254 I-.969 J-13.549 E.09325
G1 X118.842 Y63.806 E.03652
G1 X117.545 Y64.173 E.04226
G1 X112.162 Y64.18 E.16878
G3 X89.86 Y79.643 I-21.065 J-6.567 E.91645
M204 P1000
G1 X89.86 Y79.643 F9000
G1 X89.881 Y79.269
M204 P600
G1 F1200
G3 X70.323 Y63.805 I1.216 J-21.638 E.83293
G1 X64.742 Y63.805 E.17499
G1 X63.322 Y63.405 E.04626
G3 X61.517 Y63.995 I-2.4 J-4.287 E.05992
G3 X58.46 Y63.815 I-.894 J-10.886 E.09633
G1 X57.616 Y63.454 E.02878
G1 X56.257 Y62.263 E.05666
G3 X55.38 Y60.106 I4.459 J-3.068 E.07358
G1 X55.36 Y55.374 E.14837
G3 X59.379 Y51.241 I4.526 J.381 E.19582
G1 X61.781 Y51.273 E.07532
G3 X63.309 Y51.837 I-.826 J4.588 E.05133
G1 X64.676 Y51.442 E.04461
G1 X70.322 Y51.435 E.17703
G3 X91.173 Y35.933 I20.776 J6.17 E.87358
G3 X111.871 Y51.432 I-.076 J21.671 E.86872
G1 X117.452 Y51.432 E.17499
G1 X118.882 Y51.836 E.04659
G3 X120.498 Y51.262 I2.349 J4.056 E.05407
G1 X122.885 Y51.247 E.07484
G3 X126.169 Y53.294 I-.634 J4.676 E.12502
G1 X126.795 Y54.993 E.05677
G1 X126.817 Y60.046 E.15843
G3 X125.991 Y62.19 I-5.345 J-.828 E.07259
G3 X123.827 Y63.783 I-4.275 J-3.541 E.0851
G3 X120.04 Y63.897 I-2.176 J-9.337 E.11958
G1 X118.864 Y63.407 E.03995
G1 X117.517 Y63.796 E.04396
G1 X111.872 Y63.803 E.177
M73 P1 R205
M73 Q1 S205
G3 X89.941 Y79.272 I-20.775 J-6.172 E.90741
M204 P1000
G1 X89.941 Y79.272 F9000
G1 X89.961 Y78.896
M204 P600
G1 F1200
G3 X70.606 Y63.428 I1.136 J-21.265 E.8291
G1 X64.769 Y63.428 E.18302
G1 X63.291 Y63.003 E.04822
G3 X61.462 Y63.622 I-2.451 J-4.232 E.06094
G3 X58.589 Y63.46 I-.847 J-10.598 E.0905
G3 X56.045 Y61.148 I1.528 J-4.238 E.11059
G1 X55.757 Y60.079 E.03471
G1 X55.737 Y55.391 E.14699
G3 X59.399 Y51.619 I4.14 J.355 E.17847
G1 X61.707 Y51.643 E.07237
G3 X63.268 Y52.243 I-.83 J4.497 E.05273
G1 X64.704 Y51.819 E.04695
G1 X70.605 Y51.811 E.18502
G3 X92.239 Y36.34 I20.494 J5.796 E.90065
G3 X111.588 Y51.809 I-1.142 J21.264 E.82894
G1 X117.425 Y51.809 E.18302
G1 X118.922 Y52.24 E.04884
G3 X120.567 Y51.634 I2.386 J3.939 E.0553
G1 X122.862 Y51.624 E.07196
G3 X125.854 Y53.503 I-.597 J4.274 E.11413
G1 X126.419 Y55.028 E.05099
G1 X126.444 Y59.987 E.15549
G3 X125.709 Y61.938 I-4.893 J-.73 E.06586
G3 X123.689 Y63.431 I-3.941 J-3.217 E.07958
G3 X120.118 Y63.527 I-2.029 J-9.03 E.11271
G1 X118.887 Y63.006 E.04191
G1 X117.489 Y63.419 E.04571
G1 X111.589 Y63.426 E.18499
G3 X90.021 Y78.899 I-20.492 J-5.795 E.89856
M204 P1000
G1 X90.021 Y78.899 F9000
G1 X90.04 Y78.521
M204 P600
G1 F1200
G3 X70.889 Y63.051 I1.057 J-20.897 E.82524
G1 X64.797 Y63.051 E.19101
G1 X63.487 Y62.667 E.0428
G2 X63.095 Y62.678 I-.192 J.137 E.01451
G3 X61.409 Y63.248 I-2.225 J-3.806 E.05619
G3 X58.718 Y63.105 I-.8 J-10.362 E.08473
G3 X56.134 Y60.052 I1.236 J-3.666 E.1318
G1 X56.114 Y55.408 E.14561
G3 X59.418 Y51.996 I3.756 J.331 E.1611
G1 X61.632 Y52.014 E.06942
G3 X63.29 Y52.683 I-.912 J4.647 E.0564
G1 X64.733 Y52.196 E.04775
G1 X70.888 Y52.188 E.19299
G3 X91.162 Y36.687 I20.214 J5.429 E.86053
G3 X111.305 Y52.186 I-.07 J20.929 E.85638
G1 X117.397 Y52.186 E.19101
G1 X118.897 Y52.679 E.04951
G3 X120.635 Y52.005 I2.558 J4.022 E.05883
G3 X123.756 Y52.235 I.937 J8.566 E.09867
G3 X125.538 Y53.711 I-1.624 J3.777 E.07354
G1 X126.042 Y55.064 E.04527
G1 X126.071 Y59.93 E.15257
G3 X125.424 Y61.688 I-4.441 J-.635 E.05917
G3 X123.551 Y63.08 I-3.604 J-2.896 E.07397
G3 X120.197 Y63.158 I-1.881 J-8.746 E.10582
G3 X118.926 Y62.54 I1.554 J-4.816 E.04446
G1 X117.461 Y63.042 E.04856
G1 X111.306 Y63.049 E.19299
G3 X90.1 Y78.524 I-20.209 J-5.425 E.88975
M204 P1000
G1 X90.1 Y78.524 F9000
G1 X90.118 Y78.146
M204 P600
G1 F1200
G3 X71.172 Y62.674 I.979 J-20.535 E.82141
G1 X64.825 Y62.674 E.19901
G3 X63.244 Y62.066 I.737 J-4.278 E.05345
G3 X61.358 Y62.874 I-2.178 J-2.478 E.06542
G3 X58.846 Y62.75 I-.756 J-10.199 E.07906
G3 X56.511 Y60.024 I1.091 J-3.297 E.11827
G1 X56.492 Y55.424 E.14423
G3 X59.439 Y52.373 I3.372 J.308 E.14373
G3 X62.336 Y52.593 I.838 J8.127 E.09158
G1 X63.253 Y53.165 E.03389
G3 X64.762 Y52.573 I2.278 J3.59 E.05114
G1 X71.171 Y52.565 E.20095
G3 X92.199 Y37.093 I19.939 J5.073 E.88674
G3 X111.022 Y52.564 I-1.118 J20.547 E.81756
G1 X117.369 Y52.564 E.19901
G3 X118.948 Y53.169 I-.742 J4.295 E.05336
G3 X120.7 Y52.377 I2.175 J2.48 E.06117
G3 X123.637 Y52.594 I.878 J8.11 E.09285
G3 X125.665 Y55.1 I-1.328 J3.148 E.10526
G1 X125.697 Y59.876 E.14975
G3 X122.659 Y62.874 I-3.372 J-.379 E.14473
G3 X120.278 Y62.789 I-.748 J-12.39 E.07482
G3 X118.951 Y62.065 I1.034 J-3.478 E.04775
G3 X117.432 Y62.665 I-2.275 J-3.541 E.05153
G1 X111.022 Y62.673 E.20098
G3 X90.178 Y78.148 I-19.925 J-5.062 E.88095
M204 P1000
G1 X90.178 Y78.148 F9000
G1 X90.195 Y77.774
M204 P600
G1 F1200
G3 X71.475 Y62.297 I.902 J-20.151 E.81727
G1 X64.853 Y62.297 E.20763
G3 X63.215 Y61.584 I.635 J-3.699 E.05656
G3 X61.34 Y62.497 I-2.169 J-2.073 E.06678
G3 X58.974 Y62.395 I-.736 J-10.396 E.07441
G3 X56.888 Y59.996 I.946 J-2.929 E.10475
G1 X56.869 Y55.44 E.14285
G3 X59.46 Y52.75 I2.988 J.286 E.12639
G3 X62.177 Y52.936 I.82 J7.964 E.08581
G3 X63.215 Y53.652 I-1.218 J2.876 E.03981
G3 X64.792 Y52.95 I2.254 J2.938 E.05463
G1 X71.475 Y52.942 E.20954
G3 X91.151 Y37.441 I19.626 J4.675 E.84731
G3 X110.719 Y52.941 I-.058 J20.175 E.8439
G1 X117.341 Y52.941 E.20763
G3 X118.979 Y53.652 I-.637 J3.705 E.05653
G3 X120.764 Y52.749 I2.166 J2.067 E.06395
G3 X123.477 Y52.936 I.817 J7.942 E.08568
G3 X125.288 Y55.137 I-1.156 J2.797 E.09305
G1 X125.323 Y59.824 E.14696
G3 X122.64 Y62.497 I-2.988 J-.317 E.12847
G3 X120.361 Y62.42 I-.728 J-12.208 E.0716
G3 X118.976 Y61.586 I1.008 J-3.24 E.05118
G3 X117.402 Y62.288 I-2.246 J-2.923 E.05454
G1 X110.719 Y62.296 E.20954
G3 X90.255 Y77.776 I-19.622 J-4.673 E.87198
M204 P1000
G1 X90.255 Y77.776 F9000
G1 X90.271 Y77.399
M204 P600
G1 F1200
G3 X71.772 Y61.92 I.826 J-19.781 E.81321
G1 X64.883 Y61.92 E.216
G3 X63.237 Y61.051 I.352 J-2.662 E.0596
G3 X61.321 Y62.12 I-2.311 J-1.892 E.07044
G3 X59.102 Y62.039 I-.712 J-10.964 E.06974
G3 X57.265 Y59.966 I.802 J-2.561 E.09125
G1 X57.246 Y55.454 E.14147
G3 X59.484 Y53.127 I2.603 J.264 E.10909
G3 X62.018 Y53.279 I.799 J7.895 E.07994
G3 X63.225 Y54.19 I-1.436 J3.158 E.0478
G3 X64.823 Y53.327 I2.015 J1.82 E.05806
G1 X71.772 Y53.318 E.21788
G3 X92.149 Y37.846 I19.333 J4.307 E.87213
G3 X110.422 Y53.318 I-1.061 J19.779 E.80614
G1 X117.311 Y53.318 E.216
G3 X118.958 Y54.187 I-.352 J2.662 E.05963
G3 X120.825 Y53.122 I2.315 J1.888 E.06894
G3 X123.317 Y53.278 I.753 J7.946 E.07861
G3 X124.911 Y55.174 I-.983 J2.445 E.08085
G1 X124.946 Y59.81 E.14536
G3 X122.621 Y62.12 I-2.602 J-.294 E.11103
G3 X120.445 Y62.051 I-.707 J-12.161 E.06835
G3 X118.991 Y61.027 I.86 J-2.764 E.05668
G3 X117.371 Y61.911 I-2.048 J-1.829 E.05901
G1 X110.422 Y61.919 E.21788
G3 X90.331 Y77.401 I-19.325 J-4.301 E.86315
M204 P1000
G1 X90.331 Y77.401 F9000
G1 X90.345 Y77.023
M204 P600
G1 F1200
G3 X72.069 Y61.543 I.752 J-19.417 E.80913
G1 X64.912 Y61.543 E.2244
G3 X63.153 Y60.277 I.33 J-2.314 E.07066
G3 X61.302 Y61.743 I-2.09 J-.738 E.07808
G1 X59.594 Y61.743 E.05355
G3 X57.642 Y59.935 I.247 J-2.225 E.08934
G1 X57.623 Y55.468 E.14006
G3 X59.547 Y53.499 I2.218 J.243 E.09302
G3 X61.858 Y53.621 I.731 J8.119 E.07281
G3 X63.159 Y54.948 I-.809 J2.095 E.06007
G3 X64.853 Y53.704 I2.078 J1.055 E.06836
G1 X72.069 Y53.695 E.22625
G3 X91.14 Y38.195 I19.044 J3.949 E.83405
G3 X110.125 Y53.695 I-.059 J19.45 E.83135
G1 X117.282 Y53.695 E.2244
G3 X119.041 Y54.96 I-.331 J2.314 E.07063
G3 X120.847 Y53.499 I2.088 J.735 E.07667
G3 X123.158 Y53.621 I.731 J8.119 E.07281
G3 X124.535 Y55.212 I-.813 J2.094 E.06866
G1 X124.569 Y59.796 E.14373
G3 X122.602 Y61.743 I-2.218 J-.274 E.09358
G1 X120.894 Y61.743 E.05355
G3 X119.003 Y60.336 I.333 J-2.423 E.07711
G3 X117.341 Y61.534 I-2.03 J-1.065 E.06659
G1 X110.125 Y61.542 E.22625
G3 X90.405 Y77.025 I-19.028 J-3.936 E.85444
M204 P1000
G1 E-2.24 F2700
;WIPE_START
G1 F7200
G1 X90.345 Y77.023 E-.02139
G3 X87.727 Y76.743 I.752 J-19.416 E-.93861
;WIPE_END
G1 Z.4 F720
G1 X62.647 Y60.477 F9000
G1 Z.2 F720
G1 E3.2 F1500
M204 P600
G1 F1200
G3 X61.285 Y61.366 I-1.588 J-.947 E.0528
G1 X59.608 Y61.366 E.05258
G3 X58.019 Y59.903 I.228 J-1.842 E.07228
G1 X58 Y55.48 E.13868
G3 X59.607 Y53.872 I1.833 J.224 E.07678
G1 X61.328 Y53.876 E.05396
G3 X62.858 Y55.251 I-.262 J1.83 E.0684
G1 X62.894 Y59.756 E.14126
G3 X62.677 Y60.425 I-1.835 J-.226 E.02219
M204 P1000
G1 X62.677 Y60.425 F9000
G1 X62.349 Y60.244
M204 P600
G1 F1200
G3 X61.268 Y60.989 I-1.286 J-.709 E.04268
G1 X59.624 Y60.989 E.05155
G3 X58.387 Y59.814 I.204 J-1.454 E.05708
G1 X58.377 Y55.495 E.13542
G3 X59.626 Y54.249 I1.452 J.206 E.05936
G1 X61.306 Y54.253 E.05268
G3 X62.494 Y55.354 I-.236 J1.445 E.05381
G1 X62.517 Y59.742 E.13758
G3 X62.377 Y60.191 I-1.454 J-.207 E.01481
M73 P1 R204
M73 Q1 S204
M204 P1000
G1 X62.377 Y60.191 F9000
G1 X62.041 Y60.023
M204 P600
G1 F1200
G3 X61.253 Y60.611 I-.98 J-.49 E.03197
G1 X59.641 Y60.611 E.05054
G3 X58.754 Y59.725 I.181 J-1.067 E.04192
G1 X58.754 Y55.513 E.13206
G3 X59.644 Y54.626 I1.073 J.186 E.042
G1 X61.284 Y54.63 E.05142
G3 X62.129 Y55.453 I-.212 J1.062 E.03911
G1 X62.14 Y59.725 E.13395
G3 X62.066 Y59.969 I-1.079 J-.192 E.00801
M204 P1000
G1 X62.066 Y59.969 F9000
G1 X61.723 Y59.819
M204 P600
G1 F1200
G3 X61.232 Y60.234 I-.669 J-.294 E.02087
G1 X59.662 Y60.234 E.04923
G3 X59.131 Y59.69 I.154 J-.681 E.0252
G1 X59.131 Y55.534 E.13031
G3 X59.662 Y55.003 I.709 J.178 E.02473
G1 X61.232 Y55.003 E.04923
G3 X61.763 Y55.548 I-.154 J.681 E.02523
G1 X61.763 Y59.704 E.13031
G3 X61.745 Y59.763 I-.709 J-.179 E.00193
M204 P1000
G1 X61.745 Y59.763 F9000
G1 X61.386 Y59.648
M204 P600
G1 F1200
G1 X61.176 Y59.857 E.00929
G1 X59.718 Y59.857 E.04571
