; generated by PrusaSlicer 2.7.4+MacOS-arm64 on 2024-11-04 at 06:02:48 UTC


;
;

;
;

;
;

;
;
; 

; external perimeters extrusion width = 0.45mm
; perimeters extrusion width = 0.45mm
; infill extrusion width = 0.45mm
; solid infill extrusion width = 0.45mm
; top infill extrusion width = 0.40mm
; first layer extrusion width = 0.42mm

M73 P0 R191
M73 Q0 S191
M201 X2500 Y2500 Z400 E5000 ; sets maximum accelerations, mm/sec^2
M203 X180 Y180 Z12 E80 ; sets maximum feedrates, mm / sec
M204 P2000 R1250 T2500 ; sets acceleration (P, T) and retract acceleration (R), mm/sec^2
M205 X8.00 Y8.00 Z2.00 E10.00 ; sets the jerk limits, mm/sec
M205 S0 T0 ; sets the minimum extruding and travel feed rate, mm/sec

M486 S0
M486 Alantern.stl
M486 S-1

;TYPE:Custom
M862.3 P "MINI" ; printer model check
G90 ; use absolute coordinates
M83 ; extruder relative mode
M104 S170 ; set extruder temp for bed leveling
M140 S85 ; set bed temp
M109 R170 ; wait for bed leveling temp
M190 S85 ; wait for bed temp
M204 T1250 ; set travel acceleration
G28 ; home all without mesh bed level
G29 ; mesh bed leveling 
M204 T2500 ; restore travel acceleration
M104 S240 ; set extruder temp
G92 E0
G1 Y-2 X179 F2400
G1 Z3 F720
M109 S240 ; wait for extruder temp

; intro line
G1 X170 F1000
G1 Z0.2 F720
G1 X110 E8 F900
G1 X40 E10 F700
G92 E0

M221 S95 ; set flow
G21 ; set units to millimeters
G90 ; use absolute coordinates
M83 ; use relative distances for extrusion
M900 K0.2 ; Filament gcode

M107
;LAYER_CHANGE
;Z:0.2
;HEIGHT:0.2
G1 E-3.2 F2700
G1 Z.4 F720
G1 X65.372 Y62.195 F9000
G1 Z.2 F720
G1 E3.2 F1500
M204 P600
;TYPE:Skirt/Brim
;WIDTH:0.42
G1 F1200
G1 X68.657 Y58.844 E.14713
G1 X69.16 Y58.46 E.01984
G1 X90.731 Y46.164 E.77851
G3 X105.708 Y43.047 I12.361 J21.855 E.4874
G3 X114.144 Y45.557 I-3.008 J25.541 E.27733
G1 X136.84 Y58.46 E.81858
G1 X137.343 Y58.844 E.01984
G1 X140.331 Y61.832 E.13249
G1 X141.027 Y63.513 E.05705
G1 X141.027 Y71.637 E.25472
G1 X139.444 Y104.766 E1.03992
G3 X121.233 Y124.807 I-21.499 J-1.242 E.91817
G1 X74.016 Y131.036 E1.49328
G3 X47.882 Y88.449 I-2.985 J-27.481 E1.95626
G1 X65.338 Y62.245 E.98722
M204 P1000
G1 E-2.24 F2700
;WIPE_START
G1 F7200
G1 X65.372 Y62.195 E-.02154
G1 X67.216 Y60.314 E-.93846
;WIPE_END
G1 Z.4 F720
G1 X67.589 Y78.847 F9000
G1 Z.2 F720
G1 E3.2 F1500
M204 P600
G1 F1200
G3 X71.457 Y78.622 I3.403 J25.101 E.1216
G3 X67.024 Y78.93 I-.491 J24.955 E4.77763
G3 X67.53 Y78.855 I3.968 J25.018 E.01604
M204 P1000
G1 X67.53 Y78.855 F9000
G1 X67.582 Y79.228
M204 P600
G1 F1200
G3 X69.648 Y79.026 I3.418 J24.344 E.06511
G1 X70.932 Y78.989 E.04028
G3 X67.522 Y79.236 I.068 J24.583 E4.73578
M204 P1000
G1 X67.522 Y79.236 F9000
G1 X67.575 Y79.61
M204 P600
G1 F1200
G3 X71.44 Y79.376 I3.414 J24.3 E.12153
G3 X67.153 Y79.673 I-.474 J24.201 E4.63367
M73 P0 R190
M73 Q0 S190
G3 X67.516 Y79.619 I3.836 J24.237 E.01151
M204 P1000
G1 X67.516 Y79.619 F9000
G1 X67.57 Y79.991
M204 P600
G1 F1200
G3 X69.699 Y79.778 I3.43 J23.581 E.06711
G1 X70.944 Y79.743 E.03905
G3 X67.51 Y80 I.056 J23.829 E4.58644
M204 P1000
G1 X67.51 Y80 F9000
G1 X67.565 Y80.374
M204 P600
G1 F1200
G3 X71.423 Y80.13 I3.421 J23.497 E.12134
G3 X67.283 Y80.416 I-.457 J23.447 E4.48974
G3 X67.505 Y80.382 I3.703 J23.455 E.00704
M204 P1000
G1 X67.505 Y80.382 F9000
G1 X67.562 Y80.755
M204 P600
G1 F1200
G3 X69.749 Y80.531 I3.438 J22.817 E.06896
G1 X70.956 Y80.497 E.03786
G3 X67.502 Y80.764 I.044 J23.075 E4.43723
M204 P1000
G1 X67.502 Y80.764 F9000
G1 X67.559 Y81.137
M204 P600
G1 F1200
G3 X71.406 Y80.884 I3.424 J22.696 E.12102
G3 X67.412 Y81.159 I-.441 J22.693 E4.34579
G3 X67.499 Y81.146 I3.571 J22.674 E.00276
M204 P1000
G1 X67.499 Y81.146 F9000
G1 X67.557 Y81.518
M204 P600
G1 F1200
G3 X69.8 Y81.284 I3.444 J22.054 E.07074
G1 X70.967 Y81.251 E.03661
G3 X67.498 Y81.528 I.034 J22.321 E4.28817
M204 P1000
G1 X67.498 Y81.528 F9000
G1 X67.556 Y81.9
M204 P600
G1 F1200
G3 X71.387 Y81.638 I3.425 J21.895 E.12055
G3 X67.497 Y81.91 I-.422 J21.939 E4.20049
M204 P1000
G1 X67.497 Y81.91 F9000
G1 X67.557 Y82.282
M204 P600
G1 F1200
G3 X69.85 Y82.036 I3.444 J21.291 E.07234
G1 X70.978 Y82.005 E.03538
G3 X67.498 Y82.292 I.023 J21.568 E4.13924
M204 P1000
G1 X67.498 Y82.292 F9000
G1 X67.559 Y82.664
M204 P600
G1 F1200
G3 X67.669 Y82.646 I3.406 J20.913 E.00349
G3 X71.369 Y82.392 I3.309 J21.113 E.11643
G3 X67.499 Y82.673 I-.404 J21.185 E4.05253
M204 P1000
G1 X67.499 Y82.673 F9000
G1 X67.562 Y83.046
M204 P600
G1 F1200
G3 X69.899 Y82.789 I3.439 J20.527 E.07376
G1 X70.989 Y82.76 E.03419
G3 X67.503 Y83.056 I.012 J20.813 E3.99046
M73 P1 R189
M73 Q1 S189
M204 P1000
G1 X67.503 Y83.056 F9000
G1 X67.565 Y83.427
M204 P600
G1 F1200
G3 X67.797 Y83.389 I3.4 J20.15 E.00737
G3 X71.35 Y83.146 I3.178 J20.333 E.1118
G3 X67.506 Y83.437 I-.385 J20.431 E3.90476
M204 P1000
G1 E-2.24 F2700
;WIPE_START
G1 F7200
G1 X67.565 Y83.427 E-.02132
G3 X67.797 Y83.389 I3.419 J20.147 E-.08375
G3 X70.184 Y83.157 I3.178 J20.333 E-.85493
;WIPE_END
G1 Z.4 F720
G1 X70.911 Y74.097 F9000
G1 Z.2 F720
G1 E3.2 F1500
M204 P600
G1 F1200
G3 X67.678 Y70.239 I1.725 J-4.731 E.16527
G1 X67.636 Y65.314 E.15443
G3 X72.013 Y60.82 I4.916 J.41 E.21317
G1 X74.463 Y60.853 E.07682
G3 X75.998 Y61.387 I-.814 J4.814 E.0512
G1 X77.231 Y61.032 E.04023
G1 X81.986 Y61.018 E.14909
G3 X104.189 Y45.594 I21.027 J6.576 E.91258
G3 X124.012 Y61.012 I-1.205 J22.002 E.8378
G1 X128.631 Y61.012 E.14483
G1 X129.997 Y61.388 E.04442
G3 X131.583 Y60.847 I2.328 J4.226 E.05281
G1 X134.211 Y60.846 E.0824
G3 X137.722 Y63.193 I-.787 J4.976 E.13664
G1 X138.29 Y64.719 E.05105
G1 X138.352 Y69.977 E.16487
G3 X133.96 Y74.331 I-4.903 J-.553 E.20957
G3 X131.071 Y74.211 I-.89 J-13.361 E.09084
G1 X130.003 Y73.767 E.03626
G1 X128.769 Y74.118 E.04023
G1 X124.015 Y74.132 E.14906
G3 X116.727 Y84.791 I-21.177 J-6.658 E.41079
G3 X105.277 Y89.722 I1.295 J18.769 E3.30783
G1 X105.169 Y89.478 E.00837
G3 X81.988 Y74.138 I-2.166 J-21.914 E.94321
G1 X77.369 Y74.138 E.14483
G1 X76.006 Y73.762 E.04433
G3 X74.116 Y74.335 I-2.386 J-4.47 E.06232
G3 X71.107 Y74.163 I-.848 J-11.573 E.09477
G3 X70.968 Y74.117 I1.529 J-4.797 E.00459
M204 P1000
G1 X70.968 Y74.117 F9000
G1 X71.092 Y73.761
M204 P600
G1 F1200
G3 X68.047 Y70.161 I1.534 J-4.385 E.15506
G1 X68.013 Y65.33 E.15148
G3 X72.03 Y61.198 I4.529 J.384 E.19571
G1 X74.434 Y61.229 E.07538
G3 X75.959 Y61.792 I-.824 J4.582 E.05123
G1 X77.259 Y61.409 E.04249
G1 X82.276 Y61.394 E.15731
G3 X103.076 Y45.939 I20.725 J6.169 E.8712
G3 X123.722 Y61.389 I-.077 J21.623 E.86626
G1 X128.605 Y61.389 E.1531
G1 X130.036 Y61.792 E.04661
G3 X131.651 Y61.219 I2.347 J4.052 E.05403
G1 X134.136 Y61.216 E.07792
G3 X137.378 Y63.35 I-.709 J4.607 E.12552
G1 X137.925 Y64.82 E.04918
G1 X137.978 Y69.922 E.15998
G3 X133.903 Y73.958 I-4.523 J-.492 E.19456
G3 X131.193 Y73.853 I-.836 J-13.459 E.08518
G1 X130.024 Y73.367 E.03969
G1 X128.741 Y73.741 E.0419
G1 X123.725 Y73.756 E.15727
G3 X115.834 Y84.989 I-20.67 J-6.131 E.43805
G1 X115.936 Y85.252 E.00884
G3 X106.443 Y89.209 I2.065 J18.319 E3.30496
G1 X106.328 Y88.952 E.00883
G3 X82.278 Y73.761 I-3.33 J-21.363 E.9734
G1 X77.395 Y73.761 E.1531
G1 X75.975 Y73.361 E.04626
G3 X74.098 Y73.958 I-2.41 J-4.327 E.06217
G3 X71.194 Y73.796 I-.833 J-11.152 E.09145
G3 X71.149 Y73.781 I1.432 J-4.42 E.00149
M204 P1000
G1 X71.268 Y73.424 F9000
M204 P600
G1 F1200
G3 X68.417 Y70.084 I1.348 J-4.038 E.14466
G1 X68.39 Y65.347 E.14853
G3 X72.05 Y61.575 I4.143 J.358 E.17839
G1 X74.36 Y61.6 E.07243
G3 X75.919 Y62.198 I-.828 J4.49 E.05265
G1 X77.288 Y61.786 E.04483
G1 X82.559 Y61.771 E.16527
G3 X104.139 Y46.346 I20.443 J5.793 E.8982
G3 X123.439 Y61.766 I-1.14 J21.216 E.82658
G1 X128.578 Y61.766 E.16113
G1 X130.076 Y62.196 E.04887
G3 X131.719 Y61.59 I2.383 J3.935 E.05524
G1 X134.063 Y61.587 E.07349
G3 X137.035 Y63.508 I-.634 J4.239 E.11438
G1 X137.56 Y64.92 E.04723
G1 X137.601 Y69.905 E.15631
G3 X133.884 Y73.581 I-4.138 J-.467 E.1772
G3 X131.271 Y73.483 I-.819 J-13.096 E.08212
G1 X130.046 Y72.967 E.04168
G1 X128.712 Y73.364 E.04364
G1 X123.441 Y73.379 E.16527
G3 X114.275 Y85.6 I-20.443 J-5.786 E.48995
G1 X114.391 Y85.884 E.00962
G3 X107.983 Y88.554 I3.61 J17.691 E3.33806
G1 X107.864 Y88.27 E.00965
G3 X82.561 Y73.384 I-4.861 J-20.686 E1.01612
G1 X77.422 Y73.384 E.16113
G1 X75.943 Y72.96 E.04824
G3 X74.08 Y73.581 I-2.449 J-4.237 E.06199
G3 X71.327 Y73.437 I-.817 J-10.745 E.08667
M204 P1000
G1 E-2.24 F2700
;WIPE_START
G1 F7200
G1 X71.268 Y73.424 E-.02152
G3 X69.176 Y71.893 I1.349 J-4.038 E-.93848
;WIPE_END
G1 Z.4 F720
G1 X103.116 Y93.98 F9000
G1 Z.2 F720
G1 E3.2 F1500
M204 P600
G1 F1200
G3 X116.096 Y85.996 I14.849 J9.596 E.49399
G1 X118.418 Y85.902 E.07286
G3 X103.083 Y94.031 I-.453 J17.674 E2.91409
M204 P1000
G1 X103.083 Y94.031 F9000
G1 X103.422 Y94.247
M204 P600
G1 F1200
G3 X117.057 Y86.295 I14.575 J9.326 E.51391
M73 P1 R188
M73 Q1 S188
G1 X118.956 Y86.296 E.05954
G3 X103.39 Y94.298 I-.959 J17.277 E2.83344
M204 P1000
G1 X103.39 Y94.298 F9000
G1 X103.687 Y94.487
M204 P600
G1 F1200
G3 X116.187 Y86.744 I14.277 J9.089 E.47692
G1 X118.403 Y86.656 E.06954
G3 X103.654 Y94.538 I-.439 J16.92 E2.78594
M204 P1000
G1 X103.654 Y94.538 F9000
G1 X103.995 Y94.752
M204 P600
G1 F1200
G3 X117.105 Y87.048 I14.003 J8.821 E.49537
G1 X118.905 Y87.049 E.05644
G3 X103.963 Y94.803 I-.907 J16.524 E2.70652
M204 P1000
G1 X103.963 Y94.803 F9000
G1 X104.261 Y94.989
M204 P600
G1 F1200
G3 X116.277 Y87.493 I13.703 J8.587 E.45963
G1 X118.388 Y87.411 E.06624
G3 X104.229 Y95.04 I-.424 J16.165 E2.65801
M204 P1000
G1 X104.229 Y95.04 F9000
G1 X104.572 Y95.253
M204 P600
G1 F1200
G3 X117.153 Y87.801 I13.426 J8.32 E.47666
G1 X118.854 Y87.801 E.05333
G3 X104.541 Y95.304 I-.856 J15.772 E2.57979
M204 P1000
G1 X104.541 Y95.304 F9000
G1 X104.839 Y95.488
M204 P600
G1 F1200
G3 X116.367 Y88.242 I13.125 J8.088 E.44218
G1 X118.374 Y88.165 E.06297
G3 X104.807 Y95.539 I-.41 J15.411 E2.53016
M204 P1000
G1 X104.807 Y95.539 F9000
G1 X105.153 Y95.75
M204 P600
G1 F1200
G3 X117.2 Y88.554 I12.846 J7.823 E.45774
G1 X118.804 Y88.554 E.05029
G3 X105.122 Y95.801 I-.805 J15.019 E2.45319
M204 P1000
G1 X105.122 Y95.801 F9000
G1 X105.421 Y95.982
M204 P600
G1 F1200
G3 X116.456 Y88.991 I12.542 J7.594 E.42451
G1 X118.36 Y88.919 E.05974
G3 X105.39 Y96.033 I-.397 J14.657 E2.40253
M204 P1000
G1 X105.39 Y96.033 F9000
G1 X105.738 Y96.241
M204 P600
G1 F1200
G3 X117.246 Y89.306 I12.262 J7.332 E.43859
G1 X118.754 Y89.306 E.04728
G3 X105.707 Y96.293 I-.754 J14.267 E2.32678
M204 P1000
G1 E-2.24 F2700
;WIPE_START
G1 F7200
G1 X105.738 Y96.241 E-.02157
G3 X107.29 Y94.117 I12.262 J7.332 E-.93843
;WIPE_END
G1 Z.4 F720
G1 X104.96 Y88.362 F9000
G1 Z.2 F720
G1 E3.2 F1500
M204 P600
G1 F1200
G3 X82.843 Y73.007 I-1.96 J-20.782 E.9175
G1 X77.45 Y73.007 E.16909
G3 X75.927 Y72.5 I1.506 J-7.059 E.05043
G3 X74.062 Y73.204 I-2.296 J-3.258 E.06317
G3 X71.371 Y73.062 I-.8 J-10.361 E.08473
G3 X68.787 Y70.009 I1.236 J-3.667 E.1318
G1 X68.767 Y65.364 E.14564
G3 X72.07 Y61.952 I3.756 J.331 E.16107
G1 X74.285 Y61.97 E.06945
G3 X75.946 Y62.641 I-.914 J4.655 E.05651
G1 X77.317 Y62.163 E.04552
G1 X82.842 Y62.147 E.17323
G3 X103.065 Y46.693 I20.163 J5.427 E.85815
G3 X123.157 Y62.143 I-.07 J20.88 E.85395
G1 X128.55 Y62.143 E.16909
G1 X130.049 Y62.636 E.04948
G3 X131.788 Y61.962 I2.559 J4.021 E.05886
G1 X133.991 Y61.958 E.06907
G3 X136.691 Y63.667 I-.562 J3.875 E.1032
G1 X137.195 Y65.02 E.04527
G1 X137.224 Y69.887 E.1526
G3 X133.865 Y73.204 I-3.753 J-.441 E.15987
G3 X131.35 Y73.114 I-.802 J-12.778 E.07903
G3 X130.078 Y72.495 I1.544 J-4.792 E.0445
G3 X128.683 Y72.987 I-2.596 J-5.133 E.04651
G1 X123.158 Y73.003 E.17323
G3 X105.019 Y88.356 I-20.158 J-5.423 E.79267
M204 P1000
G1 X105.019 Y88.356 F9000
G1 X104.983 Y87.979
M204 P600
G1 F1200
G3 X83.126 Y72.63 I-1.983 J-20.412 E.91194
G1 X77.478 Y72.63 E.17709
G3 X75.897 Y72.022 I.73 J-4.257 E.05346
M73 P2 R188
M73 Q2 S188
G3 X74.011 Y72.83 I-2.178 J-2.48 E.06542
G3 X71.499 Y72.706 I-.756 J-10.199 E.07906
G3 X69.164 Y69.981 I1.091 J-3.297 E.11824
G1 X69.145 Y65.38 E.14426
G3 X72.092 Y62.329 I3.369 J.306 E.14375
G3 X74.99 Y62.55 I.838 J8.127 E.09162
G1 X75.898 Y63.114 E.03351
G3 X77.347 Y62.54 I2.295 J3.673 E.04913
G1 X83.125 Y62.523 E.18117
G3 X104.098 Y47.099 I19.888 J5.072 E.88421
G3 X122.874 Y62.52 I-1.114 J20.498 E.81523
G1 X128.522 Y62.52 E.17709
G3 X130.1 Y63.125 I-.734 J4.273 E.05333
M73 P2 R187
M73 Q2 S187
G3 X131.853 Y62.334 I2.176 J2.48 E.06119
G3 X134.792 Y62.551 I.878 J8.096 E.09291
G3 X136.818 Y65.056 I-1.326 J3.144 E.1052
G1 X136.85 Y69.832 E.14975
G3 X133.812 Y72.83 I-3.372 J-.379 E.14473
G3 X131.431 Y72.745 I-.748 J-12.39 E.07482
G3 X130.112 Y72.029 I1.035 J-3.478 E.0474
G3 X128.653 Y72.61 I-2.303 J-3.659 E.04951
G1 X122.875 Y72.627 E.18117
G3 X105.042 Y87.973 I-19.875 J-5.06 E.78563
M204 P1000
G1 X105.042 Y87.973 F9000
G1 X105.005 Y87.6
M204 P600
G1 F1200
G3 X83.43 Y72.253 I-2.005 J-20.02 E.90604
G1 X77.506 Y72.253 E.18574
G3 X75.868 Y71.54 I.632 J-3.691 E.05656
G3 X73.993 Y72.453 I-2.17 J-2.077 E.06678
G3 X71.627 Y72.351 I-.736 J-10.396 E.07441
G3 X69.541 Y69.952 I.946 J-2.929 E.10475
G1 X69.522 Y65.396 E.14285
G3 X72.114 Y62.706 I2.986 J.284 E.12643
G3 X74.83 Y62.892 I.819 J7.961 E.08577
G3 X75.884 Y63.623 I-1.237 J2.909 E.0405
G3 X77.377 Y62.917 I1.974 J2.241 E.05247
G1 X83.429 Y62.9 E.18976
G3 X103.054 Y47.447 I19.575 J4.673 E.8449
G3 X122.57 Y62.897 I-.058 J20.125 E.84142
G1 X128.494 Y62.897 E.18574
G3 X130.131 Y63.609 I-.634 J3.697 E.05651
G3 X131.917 Y62.706 I2.167 J2.066 E.06398
G3 X134.63 Y62.892 I.817 J7.943 E.08568
G3 X136.441 Y65.093 I-1.153 J2.795 E.09306
G1 X136.476 Y69.781 E.14699
G3 X133.793 Y72.453 I-2.988 J-.318 E.12844
G3 X131.514 Y72.376 I-.728 J-12.208 E.0716
G3 X130.113 Y71.529 I1.023 J-3.271 E.05183
G3 X128.623 Y72.233 I-1.971 J-2.241 E.05235
G1 X122.571 Y72.25 E.18976
G3 X105.065 Y87.594 I-19.571 J-4.67 E.77832
M204 P1000
G1 X105.065 Y87.594 F9000
G1 X105.026 Y87.218
M204 P600
G1 F1200
G3 X83.727 Y71.876 I-2.026 J-19.643 E.90026
G1 X77.536 Y71.876 E.19411
G3 X75.886 Y71.012 I.366 J-2.705 E.05959
G3 X73.975 Y72.076 I-2.306 J-1.895 E.07021
G3 X71.755 Y71.995 I-.713 J-10.963 E.06977
G3 X69.918 Y69.923 I.802 J-2.561 E.09122
G1 X69.899 Y65.411 E.14147
G3 X72.137 Y63.083 I2.603 J.263 E.10912
G3 X74.671 Y63.235 I.799 J7.896 E.07994
G3 X75.878 Y64.146 I-1.435 J3.158 E.0478
G3 X77.409 Y63.294 I2.002 J1.795 E.05596
G1 X83.726 Y63.276 E.19807
G3 X104.058 Y47.852 I19.282 J4.305 E.86992
G3 X122.273 Y63.274 I-1.067 J19.729 E.80347
G1 X128.464 Y63.274 E.19411
G3 X130.115 Y64.14 I-.367 J2.707 E.05965
G3 X131.978 Y63.078 I2.309 J1.886 E.06878
G3 X134.47 Y63.234 I.753 J7.946 E.07861
G3 X136.064 Y65.13 I-.983 J2.445 E.08085
G1 X136.099 Y69.766 E.14536
G3 X133.774 Y72.076 I-2.602 J-.294 E.11103
G3 X131.598 Y72.008 I-.707 J-12.161 E.06835
G3 X130.144 Y70.983 I.858 J-2.762 E.0567
G3 X128.591 Y71.856 I-2.037 J-1.807 E.05691
G1 X122.274 Y71.874 E.19807
G3 X105.086 Y87.212 I-19.274 J-4.299 E.77118
M204 P1000
G1 X105.086 Y87.212 F9000
G1 X105.046 Y86.835
M204 P600
G1 F1200
G3 X84.023 Y71.499 I-2.046 J-19.272 E.89452
G1 X77.565 Y71.499 E.20249
G3 X75.806 Y70.234 I.33 J-2.315 E.07063
G3 X73.955 Y71.699 I-2.089 J-.738 E.07806
G1 X72.247 Y71.699 E.05355
G3 X70.295 Y69.892 I.247 J-2.224 E.08931
G1 X70.276 Y65.424 E.14009
G3 X72.2 Y63.455 I2.218 J.243 E.09302
G3 X74.511 Y63.577 I.731 J8.12 E.07281
G3 X75.812 Y64.904 I-.809 J2.095 E.06007
G3 X77.441 Y63.671 I2.081 J1.056 E.0663
G1 X84.023 Y63.652 E.20637
G3 X103.043 Y48.202 I18.993 J3.948 E.83159
G3 X121.977 Y63.651 I-.059 J19.398 E.82887
G1 X128.435 Y63.651 E.20249
G3 X130.194 Y64.916 I-.33 J2.315 E.07063
G3 X132 Y63.455 I2.088 J.734 E.07668
G3 X134.311 Y63.577 I.731 J8.12 E.07281
G3 X135.688 Y65.168 I-.813 J2.095 E.06866
G1 X135.722 Y69.753 E.14376
G3 X133.755 Y71.699 I-2.218 J-.275 E.09355
G1 X132.047 Y71.699 E.05355
G3 X130.156 Y70.293 I.333 J-2.423 E.07709
G3 X128.559 Y71.479 I-2.03 J-1.065 E.06451
G1 X121.977 Y71.498 E.20637
G3 X105.105 Y86.829 I-18.977 J-3.935 E.76415
M204 P1000
G1 E-2.24 F2700
;WIPE_START
G1 F7200
G1 X105.046 Y86.835 E-.02113
G3 X102.414 Y86.934 I-2.046 J-19.272 E-.93887
;WIPE_END
G1 Z.4 F720
G1 X75.33 Y70.381 F9000
G1 Z.2 F720
G1 E3.2 F1500
M204 P600
G1 F1200
