; generated by PrusaSlicer 2.7.4+MacOS-arm64 on 2024-10-06 at 20:41:23 UTC


;
;

;
;

;
;

;
;
; 

; external perimeters extrusion width = 0.45mm
; perimeters extrusion width = 0.45mm
; infill extrusion width = 0.45mm
; solid infill extrusion width = 0.45mm
; top infill extrusion width = 0.40mm
; first layer extrusion width = 0.42mm

; external perimeters extrusion width = 0.45mm
; perimeters extrusion width = 0.45mm
; infill extrusion width = 0.45mm
; solid infill extrusion width = 0.45mm
; top infill extrusion width = 0.40mm
; first layer extrusion width = 0.42mm

; external perimeters extrusion width = 0.45mm
; perimeters extrusion width = 0.45mm
; infill extrusion width = 0.45mm
; solid infill extrusion width = 0.45mm
; top infill extrusion width = 0.40mm
; first layer extrusion width = 0.42mm

M73 P0 R127
M73 Q0 S127
M201 X2500 Y2500 Z400 E5000 ; sets maximum accelerations, mm/sec^2
M203 X180 Y180 Z12 E80 ; sets maximum feedrates, mm / sec
M204 P2000 R1250 T2500 ; sets acceleration (P, T) and retract acceleration (R), mm/sec^2
M205 X8.00 Y8.00 Z2.00 E10.00 ; sets the jerk limits, mm/sec
M205 S0 T0 ; sets the minimum extruding and travel feed rate, mm/sec

M486 S0
M486 Alantern.stl_1
M486 S-1
M486 S1
M486 Alantern.stl_2
M486 S-1
M486 S2
M486 Alantern.stl_3
M486 S-1

;TYPE:Custom
M862.3 P "MINI" ; printer model check
G90 ; use absolute coordinates
M83 ; extruder relative mode
M104 S170 ; set extruder temp for bed leveling
M140 S85 ; set bed temp
M109 R170 ; wait for bed leveling temp
M190 S85 ; wait for bed temp
M204 T1250 ; set travel acceleration
G28 ; home all without mesh bed level
G29 ; mesh bed leveling 
M204 T2500 ; restore travel acceleration
M104 S240 ; set extruder temp
G92 E0
G1 Y-2 X179 F2400
G1 Z3 F720
M109 S240 ; wait for extruder temp

; intro line
G1 X170 F1000
G1 Z0.2 F720
G1 X110 E8 F900
G1 X40 E10 F700
G92 E0

M221 S95 ; set flow
G21 ; set units to millimeters
G90 ; use absolute coordinates
M83 ; use relative distances for extrusion
M900 K0.2 ; Filament gcode

M107
;LAYER_CHANGE
;Z:0.2
;HEIGHT:0.2
G1 E-3.2 F2700
G1 Z.4 F720
G1 X57.924 Y56.663 F9000
G1 Z.2 F720
G1 E3.2 F1500
M204 P600
;TYPE:Skirt/Brim
;WIDTH:0.42
G1 F1200
G1 X60.912 Y53.675 E.13249
G1 X61.381 Y53.311 E.01861
G1 X83.491 Y40.213 E.80576
G3 X98.771 Y36.985 I12.551 J21.627 E.498
G3 X108.518 Y40.213 I-2.903 J25.091 E.32419
G1 X130.629 Y53.311 E.80578
G1 X131.098 Y53.675 E.01861
G1 X134.086 Y56.663 E.13249
G1 X134.727 Y57.834 E.04186
G1 X141.554 Y88.934 E.99834
G3 X131.133 Y112.32 I-21.193 J4.572 E.85873
M73 P0 R126
M73 Q0 S126
G1 X88.199 Y136.435 E1.54398
G3 X41.131 Y94.02 I-16.557 J-28.949 E2.62039
G1 X57.433 Y57.378 E1.25746
G1 X57.89 Y56.712 E.02533
M204 P1000
G1 E-2.24 F2700
;WIPE_START
G1 F7200
G1 X57.924 Y56.663 E-.02125
G1 X59.787 Y54.8 E-.93875
;WIPE_END
G1 Z.4 F720
G1 X60.461 Y58.147 F9000
G1 Z.2 F720
G1 E3.2 F1500
M204 P600
G1 F1200
G3 X64.119 Y55.666 I4.396 J2.544 E.14338
G1 X66.572 Y55.664 E.07691
G1 X67.609 Y55.906 E.03339
G2 X68.454 Y55.843 I.351 J-.986 E.02735
G1 X74.618 Y55.843 E.19327
G3 X96.812 Y39.508 I21.41 J5.843 E.93221
G3 X117.392 Y55.843 I-.834 J22.181 E.8816
G1 X123.477 Y55.843 E.19079
G2 X125.325 Y55.679 I.716 J-2.42 E.05957
G1 X127.806 Y55.658 E.07779
G3 X131.446 Y57.963 I-.637 J5.032 E.13952
G1 X132.093 Y59.829 E.06192
G1 X132.103 Y63.397 E.11187
G3 X131.311 Y65.551 I-6.148 J-1.038 E.07237
G3 X129.031 Y67.356 I-4.622 J-3.494 E.09216
G1 X127.74 Y67.666 E.04163
G1 X125.352 Y67.638 E.07488
G1 X124.22 Y67.316 E.0369
G1 X123.556 Y67.47 E.02137
G1 X117.391 Y67.47 E.1933
G3 X113.12 Y75.732 I-21.63 J-5.947 E.29375
G1 X113.287 Y75.961 E.00889
G3 X105.329 Y82.064 I7.146 J17.56 E3.41666
G1 X105.148 Y81.832 E.00923
G3 X90.808 Y83.198 I-9.154 J-20.142 E.46004
G1 X90.679 Y83.463 E.00924
G3 X80.905 Y78.266 I-19.05 J24.037 E5.69329
G1 X81.053 Y78.011 E.00924
G3 X74.618 Y67.47 I15.085 J-16.444 E.39235
G1 X68.532 Y67.47 E.19082
G2 X66.58 Y67.651 I-.74 J2.633 E.06286
G1 X64.276 Y67.671 E.07224
G1 X62.397 Y67.101 E.06157
G3 X59.916 Y63.466 I2.555 J-4.408 E.14268
G1 X59.891 Y60.011 E.10833
G1 X60.443 Y58.204 E.05924
M204 P1000
G1 X60.443 Y58.204 F9000
G1 X60.803 Y58.316
M204 P600
G1 F1200
G1 X60.811 Y58.289 E.00088
G3 X64.19 Y56.037 I4.04 J2.4 E.13166
G3 X67.501 Y56.268 I.968 J9.973 E.10455
G2 X68.477 Y56.22 I.442 J-.974 E.03182
G1 X74.924 Y56.22 E.20214
G3 X95.215 Y39.884 I21.087 J5.423 E.87556
G3 X117.086 Y56.22 I.783 J21.761 E.92509
G1 X123.459 Y56.22 E.19982
G2 X125.356 Y56.055 I.747 J-2.411 E.06122
G1 X127.743 Y56.031 E.07485
G3 X131.128 Y58.168 I-.562 J4.639 E.12971
G1 X131.716 Y59.862 E.05622
G1 X131.731 Y63.328 E.10868
G3 X130.989 Y65.352 I-5.684 J-.936 E.06799
G3 X128.92 Y66.995 I-4.258 J-3.237 E.0837
G1 X127.72 Y67.289 E.03874
G1 X125.382 Y67.261 E.07331
G1 X124.229 Y66.925 E.03766
G1 X123.533 Y67.093 E.02245
G1 X117.086 Y67.093 E.20214
G3 X111.672 Y76.798 I-21.094 J-5.405 E.35234
G1 X111.866 Y77.047 E.0099
G3 X106.749 Y80.955 I8.547 J16.496 E3.45723
G1 X106.554 Y80.706 E.00992
G3 X88.971 Y82.28 I-10.571 J-19.097 E.56982
G1 X88.832 Y82.565 E.00994
G3 X82.688 Y79.297 I-17.203 J24.935 E5.74934
M73 P1 R126
M73 Q1 S126
G1 X82.846 Y79.022 E.00994
G3 X74.923 Y67.093 I13.173 J-17.344 E.45752
G1 X68.55 Y67.093 E.19982
G2 X66.55 Y67.274 I-.771 J2.621 E.06448
G1 X64.302 Y67.294 E.07049
G1 X62.538 Y66.75 E.05788
G3 X60.287 Y63.394 I2.413 J-4.051 E.13094
G1 X60.268 Y60.039 E.1052
G1 X60.785 Y58.373 E.05469
M204 P1000
G1 E-2.24 F2700
;WIPE_START
G1 F7200
G1 X60.803 Y58.316 E-.02129
G1 X60.811 Y58.289 E-.01003
G3 X62.681 Y56.521 I4.04 J2.4 E-.92868
;WIPE_END
G1 Z.4 F720
G1 X65.179 Y78.278 F9000
G1 Z.2 F720
G1 E3.2 F1500
M204 P600
G1 F1200
G3 X70.561 Y77.594 I6.45 J29.216 E.17034
G1 X72.696 Y77.594 E.06694
G3 X65.12 Y78.291 I-1.067 J29.9 E5.65513
M73 P1 R125
M73 Q1 S125
M204 P1000
G1 X65.12 Y78.291 F9000
G1 X65.202 Y78.659
M204 P600
G1 F1200
G3 X68.47 Y78.121 I6.426 J28.835 E.1039
G1 X70.581 Y77.97 E.06636
G3 X65.144 Y78.672 I1.047 J29.524 E5.64791
M204 P1000
G1 X65.144 Y78.672 F9000
G1 X65.227 Y79.04
M204 P600
G1 F1200
G3 X72.669 Y78.347 I6.402 J28.454 E.23499
G1 X74.74 Y78.495 E.0651
G3 X65.168 Y79.053 I-3.111 J28.999 E5.44377
M204 P1000
G1 X65.168 Y79.053 F9000
G1 X65.252 Y79.421
M204 P600
G1 F1200
G3 X70.608 Y78.724 I6.377 J28.073 E.1696
G1 X72.649 Y78.724 E.06399
G3 X65.193 Y79.434 I-1.02 J28.77 E5.436
M204 P1000
G1 X65.193 Y79.434 F9000
G1 X65.278 Y79.802
M204 P600
G1 F1200
G3 X70.628 Y79.101 I6.351 J27.693 E.16943
G1 X72.643 Y79.101 E.06318
G3 X65.219 Y79.815 I-1.014 J28.394 E5.36271
M204 P1000
G1 X65.219 Y79.815 F9000
G1 X65.304 Y80.183
M204 P600
G1 F1200
G3 X70.634 Y79.478 I6.325 J27.312 E.16883
G1 X72.623 Y79.478 E.06236
G3 X65.246 Y80.196 I-.994 J28.017 E5.28988
M204 P1000
G1 X65.246 Y80.196 F9000
G1 X65.332 Y80.564
M204 P600
G1 F1200
G3 X72.603 Y79.854 I6.297 J26.931 E.22973
G1 X74.555 Y79.992 E.06136
G3 X65.273 Y80.577 I-2.926 J27.503 E5.15569
M73 P1 R124
M73 Q1 S124
M204 P1000
G1 X65.273 Y80.577 F9000
G1 X65.36 Y80.944
M204 P600
G1 F1200
G3 X70.661 Y80.231 I6.269 J26.551 E.16798
G1 X72.583 Y80.231 E.06026
G3 X65.301 Y80.958 I-.954 J27.264 E5.14427
M204 P1000
G1 X65.301 Y80.958 F9000
G1 X65.389 Y81.325
M204 P600
G1 F1200
G3 X70.681 Y80.608 I6.24 J26.17 E.16772
G1 X72.576 Y80.608 E.05942
G3 X65.33 Y81.339 I-.947 J26.887 E5.0711
M73 P2 R124
M73 Q2 S124
M204 P1000
G1 X65.33 Y81.339 F9000
G1 X65.419 Y81.705
M204 P600
G1 F1200
G3 X68.84 Y81.115 I6.209 J25.79 E.10892
G1 X70.701 Y80.985 E.05849
G3 X65.36 Y81.719 I.927 J26.51 E5.05655
M204 P1000
G1 X65.36 Y81.719 F9000
G1 X65.45 Y82.086
M204 P600
G1 F1200
G3 X72.55 Y81.362 I6.179 J25.409 E.22447
G1 X74.371 Y81.49 E.05724
G3 X65.391 Y82.1 I-2.742 J26.005 E4.86798
M204 P1000
G1 E-2.24 F2700
;WIPE_START
G1 F7200
G1 X65.45 Y82.086 E-.0216
G3 X68.037 Y81.593 I6.179 J25.409 E-.9384
;WIPE_END
G1 Z.4 F720
G1 X65.254 Y66.908 F9000
G1 Z.2 F720
G1 E3.2 F1500
M204 P600
G1 F1200
G1 X64.329 Y66.917 E.029
G1 X62.681 Y66.4 E.05415
G3 X60.658 Y63.322 I2.27 J-3.697 E.11927
G1 X60.646 Y60.067 E.10206
G1 X61.161 Y58.432 E.05375
G3 X64.261 Y56.408 I3.685 J2.257 E.11996
G3 X67.391 Y56.629 I.902 J9.5 E.09883
G1 X67.727 Y56.79 E.01168
G1 X68.501 Y56.597 E.02501
G1 X75.22 Y56.597 E.21067
G3 X96.798 Y40.262 I20.789 J5.042 E.91872
G3 X116.79 Y56.597 I-.796 J21.376 E.86899
G1 X123.441 Y56.597 E.20854
G2 X125.389 Y56.432 I.777 J-2.404 E.06294
G3 X128.718 Y56.638 I1.081 J9.522 E.10511
G3 X130.81 Y58.372 I-1.678 J4.153 E.08656
G1 X131.339 Y59.895 E.05055
G1 X131.36 Y63.259 E.10548
G3 X130.669 Y65.151 I-5.226 J-.836 E.06354
G3 X128.808 Y66.635 I-3.9 J-2.983 E.07538
G1 X127.7 Y66.912 E.03581
G1 X125.414 Y66.885 E.07168
G1 X124.237 Y66.534 E.03851
G1 X123.509 Y66.716 E.02353
G1 X116.79 Y66.716 E.21067
G3 X75.22 Y66.716 I-20.785 J-5.042 E1.78756
G1 X68.568 Y66.716 E.20857
G2 X66.52 Y66.897 I-.801 J2.61 E.06609
G1 X65.314 Y66.908 E.03781
M204 P1000
G1 X65.314 Y66.908 F9000
G1 X65.311 Y66.531
M204 P600
G1 F1200
G1 X64.355 Y66.539 E.02998
G3 X62.391 Y65.725 I.792 J-4.689 E.06723
G3 X61.029 Y63.251 I2.505 J-2.99 E.09061
G1 X61.023 Y60.095 E.09895
G3 X61.835 Y58.143 I4.679 J.802 E.06685
G3 X64.285 Y56.785 I2.977 J2.482 E.08986
G3 X67.278 Y56.989 I.879 J9.148 E.09448
G1 X67.685 Y57.191 E.01425
G1 X68.526 Y56.974 E.02723
G1 X75.516 Y56.974 E.21917
G3 X95.228 Y40.639 I20.494 J4.669 E.86305
G3 X116.494 Y56.974 I.771 J21.005 E.91177
G1 X123.423 Y56.974 E.21725
G2 X125.422 Y56.809 I.808 J-2.398 E.06467
G3 X128.608 Y57 I1.052 J9.109 E.10059
G3 X130.491 Y58.575 I-1.55 J3.765 E.07819
G1 X130.962 Y59.93 E.04498
G1 X130.988 Y63.19 E.10222
G3 X130.38 Y64.907 I-4.877 J-.761 E.05744
G3 X127.632 Y66.54 I-3.232 J-2.31 E.10315
G1 X125.445 Y66.508 E.06858
G1 X124.303 Y66.127 E.03775
G1 X123.484 Y66.338 E.02652
G1 X116.494 Y66.338 E.21917
G3 X75.516 Y66.338 I-20.489 J-4.668 E1.77478
G1 X68.587 Y66.338 E.21725
G2 X66.489 Y66.52 I-.832 J2.601 E.06779
G1 X65.371 Y66.53 E.03506
M204 P1000
G1 X65.371 Y66.53 F9000
G1 X65.367 Y66.153
M204 P600
G1 F1200
G1 X64.381 Y66.162 E.03092
G3 X62.651 Y65.452 I.726 J-4.233 E.05911
G3 X61.4 Y63.179 I2.231 J-2.709 E.08333
G1 X61.4 Y60.124 E.09579
G3 X62.109 Y58.403 I4.225 J.734 E.05883
G3 X64.309 Y57.162 I2.691 J2.202 E.08105
G1 X66.474 Y57.172 E.06788
G3 X67.642 Y57.594 I-.575 J3.419 E.03915
G1 X68.551 Y57.351 E.0295
G1 X75.812 Y57.351 E.22766
G3 X96.784 Y41.016 I20.205 J4.31 E.90542
G3 X116.197 Y57.351 I-.792 J20.644 E.85655
G1 X123.404 Y57.351 E.22597
G1 X124.141 Y57.495 E.02355
G2 X124.553 Y57.473 I.195 J-.229 E.01426
G1 X125.455 Y57.185 E.02969
G3 X128.455 Y57.345 I1.025 J8.998 E.09463
G3 X130.586 Y59.964 I-1.251 J3.194 E.11069
G1 X130.611 Y63.168 E.10046
G3 X127.612 Y66.163 I-3.388 J-.394 E.1434
G1 X125.477 Y66.131 E.06695
G1 X124.356 Y65.722 E.03741
G1 X123.459 Y65.961 E.02911
G1 X116.197 Y65.961 E.22769
G3 X75.813 Y65.961 I-20.192 J-4.301 E1.7618
M73 P2 R123
M73 Q2 S123
G1 X68.605 Y65.961 E.226
G1 X67.869 Y65.818 E.02351
G2 X67.425 Y65.853 I-.203 J.254 E.01538
G1 X66.459 Y66.143 E.03162
G1 X65.427 Y66.153 E.03236
M204 P1000
G1 X65.427 Y66.153 F9000
G1 X65.424 Y65.776
M204 P600
G1 F1200
G1 X64.407 Y65.785 E.03189
G3 X62.005 Y64.012 I.379 J-3.028 E.09781
G1 X61.777 Y63.154 E.02784
G1 X61.777 Y60.153 E.09409
G3 X63.523 Y57.766 I3.033 J.387 E.09678
G1 X64.334 Y57.539 E.02641
G1 X66.448 Y57.549 E.06628
G3 X67.598 Y57.997 I-.633 J3.323 E.03891
G1 X68.577 Y57.728 E.03183
G1 X76.109 Y57.728 E.23616
G3 X96.764 Y41.393 I19.918 J3.959 E.89835
G3 X115.9 Y57.728 I-.785 J20.295 E.85073
G1 X123.385 Y57.728 E.23469
G3 X124.382 Y58.014 I-.296 J2.916 E.03269
G3 X125.489 Y57.562 I1.889 J3.042 E.03767
G3 X128.304 Y57.691 I.997 J9.022 E.08871
G3 X130.209 Y59.998 I-1.089 J2.839 E.09808
G1 X130.234 Y63.145 E.09868
G3 X127.591 Y65.785 I-3 J-.36 E.12627
G1 X125.511 Y65.755 E.06522
G3 X124.41 Y65.315 I.699 J-3.349 E.03736
G1 X123.433 Y65.584 E.03177
G1 X115.901 Y65.584 E.23616
G3 X76.109 Y65.584 I-19.896 J-3.941 E1.74922
G1 X68.624 Y65.584 E.23469
G3 X67.627 Y65.298 I.297 J-2.915 E.03269
G3 X66.428 Y65.766 I-1.911 J-3.123 E.04057
G1 X65.484 Y65.775 E.0296
M204 P1000
G1 X65.484 Y65.775 F9000
G1 X65.48 Y65.398
M204 P600
G1 F1200
G1 X64.434 Y65.407 E.0328
G3 X62.154 Y63.128 I.326 J-2.606 E.10882
G1 X62.154 Y60.182 E.09237
G3 X64.36 Y57.917 I2.6 J.326 E.10642
G1 X66.42 Y57.926 E.06459
G3 X67.606 Y58.429 I-.813 J3.563 E.0406
G1 X68.604 Y58.105 E.0329
G1 X76.435 Y58.105 E.24554
G3 X98.09 Y41.865 I19.577 J3.547 E.93336
G3 X115.574 Y58.105 I-2.093 J19.785 E.80238
G1 X123.366 Y58.105 E.24431
G3 X124.409 Y58.446 I-.325 J2.757 E.03463
G3 X125.525 Y57.939 I1.866 J2.624 E.03867
G3 X128.155 Y58.038 I.966 J9.279 E.0828
G3 X129.832 Y60.032 I-.929 J2.483 E.0854
G1 X129.856 Y63.121 E.09686
G3 X127.57 Y65.408 I-2.611 J-.324 E.10918
G1 X125.545 Y65.378 E.0635
G3 X124.415 Y64.876 I.738 J-3.184 E.039
G1 X123.406 Y65.207 E.0333
G1 X115.574 Y65.207 E.24557
G3 X76.436 Y65.207 I-19.569 J-3.542 E1.73553
G1 X68.644 Y65.207 E.24431
G3 X67.602 Y64.866 I.324 J-2.755 E.0346
G3 X66.395 Y65.39 I-1.878 J-2.679 E.04154
G1 X65.54 Y65.397 E.02681
M204 P1000
G1 X65.54 Y65.397 F9000
G1 X65.537 Y65.02
M204 P600
G1 F1200
G1 X64.46 Y65.03 E.03377
G3 X62.531 Y63.101 I.29 J-2.219 E.09198
G1 X62.531 Y60.211 E.09061
G3 X64.389 Y58.294 I2.215 J.287 E.08972
G1 X66.347 Y58.297 E.06139
G3 X67.533 Y58.91 I-.397 J2.221 E.0425
G3 X68.631 Y58.482 I1.699 J2.74 E.03716
G1 X76.752 Y58.482 E.25463
G3 X96.724 Y42.146 I19.26 J3.17 E.88383
G3 X115.257 Y58.482 I-.727 J19.505 E.83872
G1 X123.345 Y58.482 E.25359
G3 X124.485 Y58.906 I-.471 J3.012 E.03839
G3 X125.562 Y58.315 I1.527 J1.506 E.03907
G1 X127.592 Y58.29 E.06365
G3 X129.455 Y60.067 I-.327 J2.208 E.08604
G1 X129.479 Y63.097 E.09501
G3 X127.547 Y65.03 I-2.222 J-.289 E.09215
G1 X125.581 Y65.002 E.06165
G3 X124.486 Y64.396 I.383 J-1.985 E.0399
G3 X123.378 Y64.83 I-1.702 J-2.711 E.03753
G1 X115.257 Y64.83 E.25463
G3 X76.753 Y64.83 I-19.252 J-3.165 E1.72236
M73 P3 R123
M73 Q3 S123
G1 X68.664 Y64.83 E.25362
G3 X67.526 Y64.407 I.471 J-3.008 E.03832
G3 X66.361 Y65.013 I-1.548 J-1.552 E.04182
G1 X65.597 Y65.02 E.02396
M204 P1000
G1 X65.597 Y65.02 F9000
G1 X65.595 Y64.648
M204 P600
G1 F1200
G1 X64.488 Y64.653 E.03471
G3 X62.908 Y63.073 I.252 J-1.832 E.07522
G1 X62.908 Y60.24 E.08883
G3 X64.419 Y58.671 I1.829 J.249 E.07305
G3 X66.61 Y58.753 I.747 J9.365 E.0689
G3 X67.542 Y59.453 I-.991 J2.288 E.03689
G3 X68.66 Y58.859 I1.357 J1.206 E.04055
G1 X77.07 Y58.859 E.26369
G3 X98.011 Y42.615 I18.946 J2.805 E.9177
G3 X114.94 Y58.859 I-2.022 J19.05 E.79171
G1 X123.324 Y58.859 E.26287
G3 X124.488 Y59.465 I-.236 J1.875 E.04202
G3 X125.655 Y58.682 I1.604 J1.13 E.04506
G3 X127.862 Y58.734 I.833 J11.461 E.06933
G3 X129.078 Y60.103 I-.616 J1.772 E.05998
G1 X129.102 Y63.071 E.09306
G3 X127.521 Y64.653 I-1.834 J-.252 E.0753
G1 X125.671 Y64.634 E.05801
G3 X124.47 Y63.857 I.467 J-2.037 E.04577
G3 X123.349 Y64.453 I-1.36 J-1.206 E.04066
G1 X114.94 Y64.453 E.26366
G3 X77.07 Y64.453 I-18.935 J-2.796 E1.70933
G1 X68.686 Y64.453 E.26287
G3 X67.525 Y63.851 I.235 J-1.872 E.04187
G3 X66.275 Y64.645 I-1.614 J-1.161 E.04758
G1 X65.655 Y64.648 E.01944
M204 P1000
G1 X65.655 Y64.648 F9000
G1 X65.647 Y64.318
M204 P600
G1 F1200
G3 X64.012 Y64.114 I-.145 J-5.496 E.05186
G3 X63.285 Y63.044 I.784 J-1.315 E.04188
G1 X63.285 Y60.27 E.08698
G3 X64.452 Y59.048 I1.443 J.209 E.05651
G1 X66.255 Y59.045 E.05653
G3 X67.442 Y60.22 I-.327 J1.518 E.05529
G3 X68.689 Y59.236 I1.58 J.721 E.05173
G1 X77.387 Y59.236 E.27272
G3 X96.685 Y42.899 I18.641 J2.453 E.86948
G3 X114.623 Y59.236 I-.707 J18.792 E.82683
G1 X123.304 Y59.236 E.27219
G3 X124.562 Y60.31 I-.266 J1.586 E.05447
G3 X125.691 Y59.059 I1.506 J.224 E.05599
G1 X127.515 Y59.04 E.05719
G3 X128.702 Y60.14 I-.242 J1.451 E.05373
G1 X128.725 Y63.043 E.09102
G3 X127.493 Y64.276 I-1.446 J-.212 E.05856
G1 X125.76 Y64.267 E.05434
G3 X124.574 Y63.083 I.297 J-1.484 E.05569
G3 X123.32 Y64.076 I-1.592 J-.722 E.05209
G1 X114.623 Y64.076 E.27269
G3 X77.387 Y64.076 I-18.618 J-2.435 E1.69644
G1 X68.706 Y64.076 E.27219
G3 X67.456 Y63.017 I.26 J-1.575 E.05394
G3 X66.192 Y64.276 I-1.518 J-.26 E.05966
