; generated by PrusaSlicer 2.7.4+MacOS-arm64 on 2024-10-07 at 00:41:47 UTC


;
;

;
;

;
;

;
;
; 

; external perimeters extrusion width = 0.45mm
; perimeters extrusion width = 0.45mm
; infill extrusion width = 0.45mm
; solid infill extrusion width = 0.45mm
; top infill extrusion width = 0.40mm
; first layer extrusion width = 0.42mm

; external perimeters extrusion width = 0.45mm
; perimeters extrusion width = 0.45mm
; infill extrusion width = 0.45mm
; solid infill extrusion width = 0.45mm
; top infill extrusion width = 0.40mm
; first layer extrusion width = 0.42mm

; external perimeters extrusion width = 0.45mm
; perimeters extrusion width = 0.45mm
; infill extrusion width = 0.45mm
; solid infill extrusion width = 0.45mm
; top infill extrusion width = 0.40mm
; first layer extrusion width = 0.42mm

M73 P0 R292
M73 Q0 S292
M201 X2500 Y2500 Z400 E5000 ; sets maximum accelerations, mm/sec^2
M203 X180 Y180 Z12 E80 ; sets maximum feedrates, mm / sec
M204 P2000 R1250 T2500 ; sets acceleration (P, T) and retract acceleration (R), mm/sec^2
M205 X8.00 Y8.00 Z2.00 E10.00 ; sets the jerk limits, mm/sec
M205 S0 T0 ; sets the minimum extruding and travel feed rate, mm/sec

M486 S0
M486 Alantern.stl_3
M486 S-1
M486 S1
M486 Alantern.stl_2
M486 S-1
M486 S2
M486 Alantern.stl_1
M486 S-1

;TYPE:Custom
M862.3 P "MINI" ; printer model check
G90 ; use absolute coordinates
M83 ; extruder relative mode
M104 S170 ; set extruder temp for bed leveling
M140 S85 ; set bed temp
M109 R170 ; wait for bed leveling temp
M190 S85 ; wait for bed temp
M204 T1250 ; set travel acceleration
G28 ; home all without mesh bed level
G29 ; mesh bed leveling 
M204 T2500 ; restore travel acceleration
M104 S240 ; set extruder temp
G92 E0
G1 Y-2 X179 F2400
G1 Z3 F720
M109 S240 ; wait for extruder temp

; intro line
G1 X170 F1000
G1 Z0.2 F720
G1 X110 E8 F900
G1 X40 E10 F700
G92 E0

M221 S95 ; set flow
G21 ; set units to millimeters
G90 ; use absolute coordinates
M83 ; use relative distances for extrusion
M900 K0.2 ; Filament gcode

M107
;LAYER_CHANGE
;Z:0.2
;HEIGHT:0.2
G1 E-3.2 F2700
G1 Z.4 F720
G1 X53.201 Y51.926 F9000
G1 Z.2 F720
G1 E3.2 F1500
M204 P600
;TYPE:Skirt/Brim
;WIDTH:0.42
G1 F1200
G1 X56.188 Y48.938 E.13247
G1 X56.71 Y48.544 E.02051
G1 X79.951 Y35.579 E.83442
G3 X94.005 Y32.993 I11.408 J22.514 E.45426
G3 X102.493 Y35.518 I-3.026 J25.7 E.27903
G1 X125.853 Y48.544 E.83861
G1 X126.375 Y48.938 E.02051
G1 X129.362 Y51.926 E.13247
G1 X129.849 Y52.631 E.02687
G1 X141.222 Y77.908 E.86907
G3 X134.215 Y104.093 I-19.843 J8.72 E.91815
G1 X92.15 Y135.046 E1.63751
G3 X41.515 Y102.397 I-19.023 J-26.088 E2.4351
M73 P0 R291
M73 Q0 S291
G1 X52.562 Y53.087 E1.5844
G1 X53.172 Y51.979 E.03966
M204 P1000
G1 E-2.24 F2700
;WIPE_START
G1 F7200
G1 X53.201 Y51.926 E-.02152
G1 X55.064 Y50.063 E-.93848
;WIPE_END
G1 Z.4 F720
G1 X63.312 Y81.028 F9000
G1 Z.2 F720
G1 E3.2 F1500
M204 P600
G1 F1200
G3 X68.41 Y79.743 I9.758 J27.955 E.16506
G3 X73.651 Y79.38 I4.687 J29.629 E.16493
G3 X63.256 Y81.048 I-.581 J29.603 E5.5012
M204 P1000
G1 X63.256 Y81.048 F9000
G1 X63.383 Y81.41
M204 P600
G1 F1200
G3 X71.517 Y79.788 I9.728 J27.567 E.26094
G1 X73.046 Y79.745 E.04796
G3 X63.327 Y81.43 I.065 J29.232 E5.44827
M204 P1000
G1 X63.327 Y81.43 F9000
G1 X63.45 Y81.779
M204 P600
G1 F1200
G3 X68.539 Y80.486 I9.62 J27.204 E.16486
G3 X73.634 Y80.134 I4.556 J28.848 E.16034
G3 X63.394 Y81.799 I-.564 J28.849 E5.35745
M204 P1000
G1 X63.394 Y81.799 F9000
G1 X63.523 Y82.161
M204 P600
G1 F1200
G3 X71.568 Y80.54 I9.588 J26.817 E.25821
G1 X73.057 Y80.499 E.0467
G3 X63.467 Y82.181 I.054 J28.479 E5.30369
M204 P1000
G1 X63.467 Y82.181 F9000
G1 X63.591 Y82.529
M204 P600
G1 F1200
G3 X68.668 Y81.229 I9.479 J26.454 E.16456
G3 X73.616 Y80.888 I4.424 J28.066 E.15571
G3 X63.535 Y82.55 I-.546 J28.095 E5.21381
M204 P1000
G1 X63.535 Y82.55 F9000
G1 X63.666 Y82.911
M204 P600
G1 F1200
G3 X71.619 Y81.293 I9.445 J26.067 E.25539
G1 X73.069 Y81.253 E.04548
G3 X63.61 Y82.932 I.042 J27.725 E5.15918
M73 P0 R290
M73 Q0 S290
M204 P1000
G1 X63.61 Y82.932 F9000
G1 X63.736 Y83.279
M204 P600
G1 F1200
G3 X68.797 Y81.972 I9.334 J25.704 E.16414
G3 X73.598 Y81.642 I4.292 J27.286 E.15108
G3 X63.679 Y83.3 I-.528 J27.341 E5.07027
M204 P1000
G1 X63.679 Y83.3 F9000
G1 X63.812 Y83.661
M204 P600
G1 F1200
G3 X71.669 Y82.046 I9.3 J25.317 E.25244
G1 X73.08 Y82.007 E.04426
G3 X63.756 Y83.682 I.032 J26.971 E5.01479
M204 P1000
G1 X63.756 Y83.682 F9000
G1 X63.883 Y84.028
M204 P600
G1 F1200
G3 X68.925 Y82.716 I9.187 J24.955 E.16362
G3 X73.58 Y82.396 I4.162 J26.505 E.14648
G3 X63.827 Y84.049 I-.51 J26.587 E4.92687
M204 P1000
G1 X63.827 Y84.049 F9000
G1 X63.961 Y84.41
M204 P600
G1 F1200
G3 X71.719 Y82.798 I9.151 J24.568 E.2494
G1 X73.091 Y82.761 E.04303
G3 X63.905 Y84.431 I.021 J26.217 E4.8705
M204 P1000
G1 X63.905 Y84.431 F9000
G1 X64.034 Y84.776
M204 P600
G1 F1200
G3 X69.054 Y83.459 I9.036 J24.207 E.163
G3 X73.561 Y83.149 I4.03 J25.724 E.14183
G3 X63.978 Y84.797 I-.491 J25.834 E4.78358
M204 P1000
G1 X63.978 Y84.797 F9000
G1 X64.114 Y85.158
M204 P600
G1 F1200
G3 X71.768 Y83.551 I8.998 J23.82 E.24619
G1 X73.101 Y83.515 E.04181
G3 X64.058 Y85.179 I.011 J25.463 E4.72637
M204 P1000
G1 X64.058 Y85.179 F9000
G1 X64.189 Y85.524
M204 P600
G1 F1200
G3 X69.182 Y84.202 I8.881 J23.459 E.16223
G3 X73.542 Y83.903 I3.899 J24.945 E.1372
G3 X64.132 Y85.545 I-.472 J25.08 E4.64039
M204 P1000
G1 E-2.24 F2700
;WIPE_START
G1 F7200
G1 X64.189 Y85.524 E-.02164
G3 X66.697 Y84.722 I8.882 J23.459 E-.93836
;WIPE_END
G1 Z.4 F720
G1 X75.819 Y73.543 F9000
G1 Z.2 F720
G1 E3.2 F1500
M204 P600
G1 F1200
M73 P0 R289
M73 Q0 S289
G3 X70.114 Y64.233 I15.463 J-15.879 E.34592
G1 X64.9 Y64.233 E.16348
G1 X63.539 Y63.856 E.04428
G3 X61.757 Y64.419 I-2.36 J-4.369 E.05895
G3 X58.553 Y64.232 I-.94 J-11.439 E.10096
G1 X57.625 Y63.839 E.0316
G1 X56.13 Y62.529 E.06232
G3 X55.194 Y60.229 I4.855 J-3.316 E.07845
G1 X55.168 Y55.407 E.15119
G3 X59.546 Y50.914 I4.91 J.406 E.21321
G1 X61.995 Y50.947 E.07679
G3 X63.534 Y51.483 I-.816 J4.818 E.05134
G1 X64.834 Y51.115 E.04236
G1 X70.112 Y51.109 E.16549
G3 X92.469 Y35.538 I21.182 J6.577 E.91986
G3 X112.449 Y51.106 I-1.201 J22.147 E.84525
G1 X117.663 Y51.106 E.16348
G1 X119.028 Y51.483 E.0444
G3 X120.614 Y50.941 I2.329 J4.228 E.05282
G1 X123.091 Y50.921 E.07767
G3 X126.669 Y53.135 I-.666 J5.073 E.13596
G1 X127.357 Y55.009 E.06259
G1 X127.374 Y60.157 E.16141
G3 X126.456 Y62.494 I-5.799 J-.928 E.07934
G1 X125.086 Y63.751 E.0583
G3 X123.068 Y64.418 I-2.813 J-5.131 E.06701
G3 X120.102 Y64.305 I-.97 J-13.55 E.09325
G1 X119.026 Y63.857 E.03654
G1 X117.73 Y64.223 E.04222
G1 X112.451 Y64.23 E.16552
G3 X75.863 Y73.585 I-21.169 J-6.566 E1.41725
M204 P1000
G1 X75.863 Y73.585 F9000
G1 X76.127 Y73.313
M204 P600
G1 F1200
G3 X70.404 Y63.856 I15.155 J-15.631 E.35042
G1 X64.927 Y63.856 E.17173
G1 X63.507 Y63.455 E.04626
G3 X61.702 Y64.046 I-2.401 J-4.287 E.05993
G3 X58.645 Y63.866 I-.894 J-10.886 E.09633
G1 X57.801 Y63.504 E.02879
G1 X56.441 Y62.314 E.05666
G3 X55.565 Y60.156 I4.46 J-3.068 E.0736
G1 X55.545 Y55.425 E.14834
G3 X59.564 Y51.292 I4.525 J.38 E.19583
G1 X61.966 Y51.324 E.07532
G3 X63.494 Y51.888 I-.826 J4.588 E.05133
G1 X64.861 Y51.492 E.04462
G1 X70.403 Y51.485 E.17377
G3 X91.358 Y35.883 I20.879 J6.17 E.87853
G3 X112.159 Y51.483 I-.076 J21.77 E.87367
G1 X117.636 Y51.483 E.17173
G1 X119.067 Y51.886 E.04661
G3 X120.683 Y51.313 I2.349 J4.057 E.05406
G1 X123.07 Y51.298 E.07484
G3 X126.354 Y53.345 I-.634 J4.676 E.12502
G1 X126.98 Y55.044 E.05677
G1 X127.001 Y60.097 E.15843
G3 X126.176 Y62.24 I-5.345 J-.828 E.07255
G3 X124.012 Y63.833 I-4.275 J-3.541 E.0851
G3 X120.224 Y63.947 I-2.176 J-9.337 E.11961
G1 X119.049 Y63.457 E.03992
G1 X117.702 Y63.846 E.04396
G1 X112.161 Y63.853 E.17373
G3 X76.17 Y73.355 I-20.879 J-6.171 E1.39984
M204 P1000
G1 X76.17 Y73.355 F9000
G1 X76.431 Y73.083
M204 P600
G1 F1200
G3 X70.687 Y63.479 I14.851 J-15.401 E.355
G1 X64.954 Y63.479 E.17975
G1 X63.475 Y63.053 E.04826
G3 X61.646 Y63.672 I-2.45 J-4.232 E.06094
G3 X58.774 Y63.511 I-.846 J-10.597 E.09047
G3 X56.229 Y61.199 I1.528 J-4.238 E.11061
G1 X55.942 Y60.13 E.0347
G1 X55.922 Y55.442 E.14699
G3 X59.583 Y51.669 I4.14 J.354 E.17847
G1 X61.891 Y51.694 E.07237
G3 X63.453 Y52.293 I-.829 J4.496 E.05275
G1 X64.889 Y51.869 E.04695
G1 X70.686 Y51.862 E.18176
G3 X92.429 Y36.291 I20.597 J5.795 E.90577
G3 X111.876 Y51.86 I-1.147 J21.362 E.83372
G1 X117.609 Y51.86 E.17975
G1 X119.106 Y52.29 E.04884
G3 X120.751 Y51.684 I2.386 J3.94 E.0553
G1 X123.047 Y51.675 E.07199
G3 X126.039 Y53.553 I-.598 J4.274 E.11411
G1 X126.603 Y55.079 E.05101
G1 X126.628 Y60.038 E.15549
G3 X125.893 Y61.989 I-4.892 J-.73 E.06586
G3 X123.873 Y63.482 I-3.94 J-3.217 E.07958
G3 X120.303 Y63.578 I-2.028 J-9.03 E.11268
G1 X119.071 Y63.057 E.04194
G1 X117.674 Y63.469 E.04567
G1 X111.877 Y63.477 E.18176
G3 X76.475 Y73.125 I-20.595 J-5.795 E1.38247
M204 P1000
G1 X76.475 Y73.125 F9000
G1 X76.735 Y72.853
M204 P600
G1 F1200
G3 X70.97 Y63.102 I14.547 J-15.178 E.35962
G1 X64.981 Y63.102 E.18778
G1 X63.672 Y62.718 E.04277
G2 X63.28 Y62.728 I-.193 J.137 E.01451
G3 X61.594 Y63.298 I-2.226 J-3.806 E.05619
G3 X58.902 Y63.156 I-.801 J-10.361 E.08476
M73 P1 R289
M73 Q1 S289
G3 X56.319 Y60.103 I1.237 J-3.666 E.13177
G1 X56.299 Y55.458 E.14564
G3 X59.603 Y52.046 I3.756 J.331 E.1611
G1 X61.817 Y52.064 E.06942
G3 X63.475 Y52.734 I-.912 J4.648 E.05641
G1 X64.918 Y52.246 E.04776
G1 X70.97 Y52.239 E.18976
G3 X91.347 Y36.637 I20.316 J5.428 E.86549
G3 X111.593 Y52.237 I-.07 J21.029 E.86134
G1 X117.582 Y52.237 E.18778
G1 X119.081 Y52.73 E.04948
G3 X120.819 Y52.056 I2.559 J4.021 E.05883
G3 X123.941 Y52.286 I.938 J8.566 E.0987
G3 X125.723 Y53.761 I-1.624 J3.776 E.07352
G1 X126.226 Y55.115 E.04529
G1 X126.255 Y59.981 E.15257
G3 X125.609 Y61.739 I-4.441 J-.635 E.05916
G3 X123.736 Y63.13 I-3.605 J-2.896 E.07395
G3 X120.382 Y63.208 I-1.882 J-8.745 E.10582
G3 X119.111 Y62.591 I1.554 J-4.815 E.04444
G1 X117.646 Y63.092 E.04855
G1 X111.594 Y63.1 E.18976
G3 X76.778 Y72.895 I-20.312 J-5.425 E1.36528
M204 P1000
G1 X76.778 Y72.895 F9000
G1 X77.037 Y72.623
M204 P600
G1 F1200
G3 X71.254 Y62.724 I14.245 J-14.961 E.36424
G1 X65.009 Y62.724 E.19581
G3 X63.428 Y62.117 I.737 J-4.277 E.05344
G3 X61.543 Y62.924 I-2.177 J-2.478 E.06537
G3 X59.031 Y62.8 I-.756 J-10.199 E.07906
G3 X56.696 Y60.075 I1.09 J-3.297 E.11824
G1 X56.676 Y55.474 E.14426
G3 X59.624 Y52.423 I3.372 J.309 E.14375
G3 X62.521 Y52.644 I.838 J8.127 E.09158
G1 X63.437 Y53.215 E.03384
G3 X64.947 Y52.623 I2.279 J3.591 E.05117
G1 X71.253 Y52.615 E.19772
G3 X92.389 Y37.044 I20.041 J5.073 E.89182
G3 X111.309 Y52.614 I-1.123 J20.646 E.8223
G1 X117.554 Y52.614 E.19581
G3 X119.132 Y53.219 I-.743 J4.295 E.05333
G3 X120.885 Y52.428 I2.176 J2.481 E.06119
G3 X123.822 Y52.645 I.878 J8.11 E.09285
G3 X125.85 Y55.151 I-1.328 J3.147 E.10526
G1 X125.882 Y59.927 E.14975
G3 X122.844 Y62.924 I-3.372 J-.379 E.1447
G3 X120.463 Y62.839 I-.748 J-12.389 E.07482
G3 X119.136 Y62.116 I1.034 J-3.478 E.04773
G3 X117.616 Y62.715 I-2.275 J-3.542 E.05155
G1 X111.31 Y62.723 E.19772
G3 X77.081 Y72.664 I-20.028 J-5.061 E1.34802
M204 P1000
G1 X77.081 Y72.664 F9000
G1 X77.341 Y72.389
M204 P600
G1 F1200
G3 X71.557 Y62.347 I13.941 J-14.715 E.36849
G1 X65.038 Y62.347 E.2044
G3 X63.399 Y61.635 I.634 J-3.698 E.05657
G3 X61.525 Y62.547 I-2.169 J-2.074 E.06674
G3 X59.159 Y62.445 I-.736 J-10.395 E.07441
G3 X57.073 Y60.046 I.945 J-2.929 E.10475
G1 X57.053 Y55.49 E.14285
G3 X59.645 Y52.8 I2.989 J.286 E.12641
G3 X62.361 Y52.986 I.82 J7.965 E.08577
G3 X63.4 Y53.703 I-1.218 J2.876 E.03986
G3 X64.977 Y53 I2.254 J2.937 E.05464
G1 X71.557 Y52.992 E.20631
G3 X91.336 Y37.392 I19.729 J4.675 E.85223
G3 X111.006 Y52.991 I-.059 J20.275 E.84879
G1 X117.525 Y52.991 E.2044
G3 X119.163 Y53.703 I-.636 J3.706 E.05654
G3 X120.949 Y52.8 I2.166 J2.066 E.06398
G3 X123.662 Y52.987 I.816 J7.942 E.08568
G3 X125.473 Y55.187 I-1.156 J2.796 E.09303
G1 X125.508 Y59.875 E.14699
G3 X122.825 Y62.547 I-2.989 J-.317 E.12844
G3 X120.545 Y62.47 I-.729 J-12.207 E.07163
G3 X119.161 Y61.636 I1.008 J-3.239 E.05116
G3 X117.587 Y62.338 I-2.247 J-2.923 E.05454
G1 X111.006 Y62.346 E.20634
G3 X77.384 Y72.431 I-19.724 J-4.672 E1.33066
M204 P1000
G1 X77.384 Y72.431 F9000
G1 X77.642 Y72.157
M204 P600
G1 F1200
G3 X71.854 Y61.97 I13.64 J-14.488 E.37289
G1 X65.067 Y61.97 E.2128
G3 X63.421 Y61.102 I.352 J-2.661 E.05958
G3 X61.506 Y62.17 I-2.311 J-1.892 E.0704
G3 X59.286 Y62.089 I-.712 J-10.963 E.06977
G3 X57.45 Y60.017 I.803 J-2.56 E.0912
G1 X57.431 Y55.505 E.14147
G3 X59.668 Y53.177 I2.603 J.263 E.10909
G3 X62.202 Y53.329 I.799 J7.896 E.07994
G3 X63.41 Y54.24 I-1.435 J3.159 E.04782
G3 X65.007 Y53.377 I2.015 J1.82 E.05803
G1 X71.854 Y53.369 E.21468
G3 X92.339 Y37.797 I19.435 J4.306 E.87724
M73 P1 R288
M73 Q1 S288
G3 X110.709 Y53.368 I-1.066 J19.879 E.81088
G1 X117.496 Y53.368 E.2128
G3 X119.143 Y54.238 I-.353 J2.663 E.05964
G3 X121.01 Y53.173 I2.315 J1.888 E.06894
G3 X123.502 Y53.329 I.753 J7.945 E.07861
G3 X125.096 Y55.224 I-.983 J2.445 E.08083
G1 X125.131 Y59.86 E.14536
G3 X122.805 Y62.17 I-2.603 J-.294 E.11106
G3 X120.63 Y62.102 I-.707 J-12.161 E.06832
G3 X119.176 Y61.078 I.859 J-2.764 E.05668
G3 X117.556 Y61.961 I-2.049 J-1.829 E.059
G1 X110.709 Y61.97 E.21468
G3 X77.686 Y72.198 I-19.427 J-4.301 E1.31338
M204 P1000
G1 X77.686 Y72.198 F9000
G1 X77.943 Y71.923
M204 P600
G1 F1200
G3 X72.152 Y61.593 I13.339 J-14.266 E.37725
G1 X65.096 Y61.593 E.22124
G3 X63.338 Y60.328 I.331 J-2.314 E.07061
G3 X61.487 Y61.793 I-2.09 J-.738 E.07805
G1 X59.779 Y61.793 E.05355
G3 X57.827 Y59.986 I.246 J-2.224 E.08931
G1 X57.808 Y55.519 E.14006
G3 X59.732 Y53.55 I2.217 J.242 E.09302
G3 X62.043 Y53.672 I.73 J8.119 E.07281
G3 X63.344 Y54.998 I-.809 J2.095 E.06005
G3 X65.038 Y53.754 I2.078 J1.055 E.06836
G1 X72.152 Y53.746 E.22305
G3 X91.325 Y38.146 I19.146 J3.949 E.83898
G3 X110.412 Y53.745 I-.06 J19.55 E.83626
G1 X117.467 Y53.745 E.2212
G3 X119.226 Y55.011 I-.331 J2.315 E.07066
G3 X121.032 Y53.55 I2.088 J.735 E.07667
G3 X123.343 Y53.672 I.73 J8.119 E.07281
G3 X124.719 Y55.262 I-.813 J2.094 E.06861
G1 X124.754 Y59.847 E.14376
G3 X122.787 Y61.793 I-2.219 J-.275 E.09355
G1 X121.079 Y61.793 E.05355
G3 X119.188 Y60.387 I.333 J-2.422 E.07709
G3 X117.525 Y61.584 I-2.03 J-1.066 E.0666
G1 X110.412 Y61.593 E.22302
G3 X77.987 Y71.964 I-19.13 J-3.936 E1.29615
M204 P1000
G1 E-2.24 F2700
;WIPE_START
G1 F7200
G1 X77.943 Y71.923 E-.02143
G3 X76.146 Y70 I13.338 J-14.267 E-.93857
;WIPE_END
G1 Z.4 F720
G1 X62.73 Y60.68 F9000
G1 Z.2 F720
G1 E3.2 F1500
M204 P600
G1 F1200
G3 X61.469 Y61.416 I-1.487 J-1.099 E.04706
G1 X59.793 Y61.416 E.05255
G3 X58.204 Y59.953 I.227 J-1.842 E.07228
G1 X58.185 Y55.53 E.13868
G3 X59.791 Y53.922 I1.833 J.225 E.07676
G1 X61.513 Y53.926 E.05399
G3 X63.042 Y55.301 I-.263 J1.83 E.06837
G1 X63.078 Y59.807 E.14129
G3 X62.765 Y60.632 I-1.835 J-.226 E.02794
M204 P1000
G1 X62.765 Y60.632 F9000
G1 X62.456 Y60.419
M204 P600
G1 F1200
G3 X61.453 Y61.039 I-1.208 J-.834 E.03805
G1 X59.808 Y61.039 E.05158
G3 X58.571 Y59.864 I.205 J-1.454 E.05708
G1 X58.562 Y55.546 E.13539
G3 X59.811 Y54.3 I1.451 J.205 E.05936
G1 X61.491 Y54.303 E.05268
G3 X62.678 Y55.404 I-.236 J1.446 E.05379
G1 X62.701 Y59.792 E.13758
G3 X62.489 Y60.369 I-1.453 J-.207 E.01942
M204 P1000
G1 X62.489 Y60.369 F9000
G1 X62.172 Y60.168
M204 P600
G1 F1200
G3 X61.437 Y60.662 I-.926 J-.584 E.02859
G1 X59.826 Y60.662 E.05051
G3 X58.939 Y59.775 I.18 J-1.067 E.04195
G1 X58.939 Y55.563 E.13206
G3 X59.829 Y54.677 I1.072 J.187 E.04197
G1 X61.468 Y54.68 E.05139
G3 X62.313 Y55.504 I-.211 J1.063 E.03913
G1 X62.324 Y59.775 E.13391
G3 X62.203 Y60.117 I-1.078 J-.191 E.01143
M204 P1000
G1 X62.203 Y60.117 F9000
G1 X61.876 Y59.934
M204 P600
G1 F1200
G3 X61.417 Y60.285 I-.638 J-.358 E.01863
G1 X59.847 Y60.285 E.04923
G3 X59.316 Y59.74 I.154 J-.681 E.02523
G1 X59.316 Y55.584 E.13031
G3 X59.847 Y55.054 I.709 J.179 E.0247
G1 X61.417 Y55.054 E.04923
G3 X61.947 Y55.598 I-.155 J.681 E.02518
G1 X61.947 Y59.754 E.13031
G3 X61.903 Y59.88 I-.709 J-.178 E.00419
M204 P1000
G1 X61.57 Y59.698 F9000
M204 P600
G1 F1200
G1 X61.361 Y59.908 E.00929
G1 X59.903 Y59.908 E.04571
G1 X59.693 Y59.698 E.00931
